;FLAVOR:Marlin
;TIME:1379
;Filament used: 1.49797m
;Layer height: 0.15
;Generated with Cura_SteamEngine 3.3.1
M190 S30
M104 S207
M109 S207
M82 ;absolute extrusion mode
G21 ;metric values
G90 ;absolute positioning
M82 ;set extruder to absolute mode
M107 ;start with the fan off
G28 X0 Y0 ;move X/Y to min endstops
G28 Z0 ;move Z to min endstops
G1 Z15.0 F9000 ;move the platform down 15mm
G92 E0 ;zero the extruded length
G1 F200 E3 ;extrude 3mm of feed stock
G92 E0 ;zero the extruded length again
G1 F9000
;Put printing message on LCD screen
M117 Printing...
G92 E0
G1 F1500 E-2.5
;LAYER_COUNT:134
;LAYER:0
M107
G0 F3600 X84.508 Y84.702 Z0.3
;TYPE:SKIRT
G1 F1500 E0
G1 F2400 X86.211 Y83.15 E0.11495
G1 X86.961 Y82.557 E0.16265
G1 X88.528 Y81.489 E0.25726
G1 X89.343 Y81.013 E0.30435
G1 X91.379 Y80.006 E0.41767
G1 X92.178 Y79.672 E0.46088
G1 X93.608 Y79.179 E0.53634
G1 X94.292 Y78.983 E0.57184
G1 X95.914 Y78.608 E0.65489
G1 X96.753 Y78.468 E0.69733
G1 X98.813 Y78.257 E0.80064
G1 X99.739 Y78.226 E0.84687
G1 X101.75 Y78.295 E0.94725
G1 X102.587 Y78.376 E0.98921
G1 X104.288 Y78.647 E1.07514
G1 X105.141 Y78.84 E1.11877
G1 X107.132 Y79.427 E1.22233
G1 X107.997 Y79.747 E1.26835
G1 X109.852 Y80.581 E1.36982
G1 X110.717 Y81.048 E1.41886
G1 X112.651 Y82.28 E1.53326
G1 X113.429 Y82.857 E1.58158
G1 X114.933 Y84.149 E1.6805
G1 X115.607 Y84.815 E1.72778
G1 X117.036 Y86.439 E1.8357
G1 X117.626 Y87.215 E1.88433
G1 X118.801 Y89.016 E1.99162
G1 X119.265 Y89.85 E2.03923
G1 X120.148 Y91.737 E2.14317
G1 X120.455 Y92.513 E2.18481
G1 X120.93 Y93.971 E2.26131
G1 X121.141 Y94.788 E2.30341
G1 X121.564 Y96.979 E2.41473
G1 X121.679 Y97.943 E2.46317
G1 X121.776 Y99.968 E2.56431
G1 X121.758 Y100.886 E2.61012
G1 X121.581 Y102.907 E2.71134
G1 X121.432 Y103.847 E2.75882
G1 X120.945 Y105.952 E2.86661
G1 X120.668 Y106.856 E2.91378
G1 X119.94 Y108.752 E3.01511
G1 X119.533 Y109.623 E3.06307
G1 X118.473 Y111.527 E3.17179
G1 X117.929 Y112.356 E3.22126
G1 X116.59 Y114.103 E3.33107
G1 X115.965 Y114.811 E3.37819
G1 X114.569 Y116.186 E3.47595
G1 X113.837 Y116.811 E3.52397
G1 X111.997 Y118.17 E3.63809
G1 X111.166 Y118.695 E3.68713
G1 X109.361 Y119.661 E3.78927
G1 X108.602 Y120.009 E3.83092
G1 X107.1 Y120.589 E3.91125
G1 X106.294 Y120.844 E3.95343
G1 X104.199 Y121.366 E4.06114
G1 X103.38 Y121.518 E4.1027
G1 X101.916 Y121.697 E4.17628
G1 X101.091 Y121.747 E4.21752
G1 X98.908 Y121.747 E4.32643
G1 X97.825 Y121.66 E4.38063
G1 X95.264 Y121.247 E4.51005
G1 X94.455 Y121.066 E4.55141
G1 X93.433 Y120.77 E4.6045
G1 X92.748 Y120.531 E4.64069
G1 X90.76 Y119.717 E4.74786
G1 X89.913 Y119.299 E4.79499
G1 X88.175 Y118.286 E4.89535
G1 X87.385 Y117.748 E4.94303
G1 X85.664 Y116.389 E5.05244
G1 X84.936 Y115.723 E5.10166
G1 X83.467 Y114.169 E5.20835
G1 X82.871 Y113.444 E5.25517
G1 X81.684 Y111.778 E5.35723
G1 X81.188 Y110.967 E5.40466
G1 X80.219 Y109.102 E5.50951
G1 X79.877 Y108.331 E5.55159
G1 X79.302 Y106.78 E5.63412
G1 X79.084 Y106.079 E5.67074
G1 X78.706 Y104.58 E5.74787
G1 X78.55 Y103.738 E5.79059
G1 X78.28 Y101.517 E5.90221
G1 X78.232 Y100.527 E5.95166
G1 X78.285 Y98.39 E6.05831
G1 X78.373 Y97.458 E6.10502
G1 X78.694 Y95.501 E6.20396
G1 X78.877 Y94.695 E6.24519
G1 X79.344 Y93.097 E6.32825
G1 X79.637 Y92.287 E6.37122
G1 X80.492 Y90.325 E6.478
G1 X80.935 Y89.477 E6.52573
G1 X82.013 Y87.726 E6.62832
G1 X82.55 Y86.975 E6.67438
G1 X83.834 Y85.412 E6.77529
G1 X84.508 Y84.702 E6.82413
G0 F3600 X84.777 Y84.998
G1 F2400 X86.48 Y83.446 E6.93909
G1 X87.187 Y82.888 E6.98402
G1 X88.754 Y81.82 E7.07863
G1 X89.521 Y81.371 E7.12297
G1 X91.557 Y80.364 E7.23629
G1 X92.308 Y80.05 E7.2769
G1 X93.738 Y79.557 E7.35237
G1 X94.382 Y79.372 E7.3858
G1 X96.004 Y78.997 E7.46885
G1 X96.794 Y78.866 E7.5088
G1 X98.854 Y78.655 E7.61212
G1 X99.725 Y78.626 E7.65559
G1 X101.736 Y78.695 E7.75598
G1 X102.524 Y78.771 E7.79548
G1 X104.225 Y79.042 E7.88141
G1 X105.028 Y79.223 E7.92248
G1 X107.019 Y79.81 E8.02604
G1 X107.833 Y80.112 E8.06935
G1 X109.688 Y80.946 E8.17082
G1 X110.503 Y81.385 E8.21701
G1 X112.437 Y82.617 E8.33141
G1 X113.168 Y83.16 E8.37684
G1 X114.672 Y84.452 E8.47576
G1 X115.307 Y85.079 E8.52028
G1 X116.736 Y86.703 E8.6282
G1 X117.291 Y87.434 E8.67399
G1 X118.466 Y89.235 E8.78128
G1 X118.903 Y90.019 E8.82606
G1 X119.786 Y91.906 E8.93
G1 X120.074 Y92.637 E8.96919
G1 X120.549 Y94.095 E9.0457
G1 X120.748 Y94.864 E9.08533
G1 X121.171 Y97.055 E9.19665
G1 X121.28 Y97.962 E9.24223
G1 X121.377 Y99.987 E9.34337
G1 X121.36 Y100.851 E9.38649
G1 X121.183 Y102.872 E9.4877
G1 X121.042 Y103.757 E9.53241
G1 X120.555 Y105.862 E9.6402
G1 X120.295 Y106.713 E9.6846
G1 X119.567 Y108.609 E9.78592
G1 X119.184 Y109.428 E9.83103
G1 X118.124 Y111.332 E9.93975
G1 X117.612 Y112.112 E9.9863
G1 X116.273 Y113.859 E10.09611
G1 X115.684 Y114.526 E10.14051
G1 X114.288 Y115.901 E10.23826
G1 X113.599 Y116.489 E10.28345
G1 X111.759 Y117.848 E10.39758
G1 X110.977 Y118.343 E10.44375
G1 X109.172 Y119.309 E10.54589
G1 X108.457 Y119.636 E10.58511
G1 X106.955 Y120.216 E10.66544
G1 X106.197 Y120.456 E10.70511
G1 X104.102 Y120.978 E10.81282
G1 X103.332 Y121.121 E10.85189
G1 X101.868 Y121.3 E10.92548
G1 X101.091 Y121.347 E10.96431
G1 X98.908 Y121.347 E11.07322
G1 X97.889 Y121.265 E11.12423
G1 X95.328 Y120.852 E11.25365
G1 X94.567 Y120.681 E11.29256
G1 X93.545 Y120.385 E11.34564
G1 X92.9 Y120.161 E11.37971
G1 X90.912 Y119.347 E11.48688
G1 X90.114 Y118.953 E11.53128
G1 X88.376 Y117.94 E11.63164
G1 X87.633 Y117.434 E11.67649
G1 X85.912 Y116.075 E11.78589
G1 X85.227 Y115.448 E11.83222
G1 X83.758 Y113.894 E11.93891
G1 X83.197 Y113.212 E11.98297
G1 X82.01 Y111.546 E12.08502
G1 X81.543 Y110.783 E12.12965
G1 X80.574 Y108.918 E12.23451
G1 X80.252 Y108.192 E12.27413
G1 X79.677 Y106.641 E12.35666
G1 X79.472 Y105.981 E12.39114
G1 X79.094 Y104.482 E12.46826
G1 X78.947 Y103.689 E12.5085
G1 X78.677 Y101.468 E12.62012
G1 X78.632 Y100.537 E12.66663
G1 X78.685 Y98.4 E12.77327
G1 X78.767 Y97.523 E12.81722
G1 X79.088 Y95.566 E12.91616
G1 X79.261 Y94.807 E12.955
G1 X79.728 Y93.209 E13.03805
G1 X80.004 Y92.447 E13.07849
G1 X80.859 Y90.485 E13.18526
G1 X81.276 Y89.687 E13.23018
G1 X82.354 Y87.936 E13.33277
G1 X82.859 Y87.228 E13.37616
G1 X84.143 Y85.665 E13.47707
G1 X84.777 Y84.998 E13.52298
G0 F3600 X85.047 Y85.293
G1 F2400 X86.75 Y83.741 E13.63794
G1 X87.412 Y83.218 E13.68003
G1 X88.979 Y82.15 E13.77464
G1 X89.698 Y81.73 E13.81618
G1 X91.734 Y80.723 E13.9295
G1 X92.438 Y80.429 E13.96756
G1 X93.868 Y79.936 E14.04303
G1 X94.472 Y79.762 E14.07439
G1 X96.094 Y79.387 E14.15744
G1 X96.835 Y79.264 E14.19492
G1 X98.895 Y79.053 E14.29823
G1 X99.712 Y79.026 E14.33901
G1 X101.723 Y79.095 E14.4394
G1 X102.461 Y79.166 E14.47639
G1 X104.162 Y79.437 E14.56232
G1 X104.915 Y79.607 E14.60083
G1 X106.906 Y80.194 E14.70439
G1 X107.669 Y80.477 E14.74499
G1 X109.524 Y81.311 E14.84646
G1 X110.288 Y81.723 E14.88977
G1 X112.222 Y82.955 E15.00417
G1 X112.908 Y83.464 E15.04679
G1 X114.412 Y84.756 E15.14571
G1 X115.006 Y85.343 E15.18737
G1 X116.435 Y86.967 E15.29529
G1 X116.956 Y87.653 E15.33827
G1 X118.131 Y89.454 E15.44555
G1 X118.54 Y90.189 E15.48752
G1 X119.423 Y92.076 E15.59146
G1 X119.694 Y92.76 E15.62816
G1 X120.169 Y94.218 E15.70467
G1 X120.355 Y94.94 E15.74186
G1 X120.778 Y97.131 E15.85319
G1 X120.88 Y97.981 E15.8959
G1 X120.977 Y100.006 E15.99704
G1 X120.961 Y100.816 E16.03746
G1 X120.784 Y102.837 E16.13868
G1 X120.653 Y103.666 E16.18055
G1 X120.166 Y105.771 E16.28834
G1 X119.921 Y106.57 E16.33004
G1 X119.193 Y108.466 E16.43136
G1 X118.834 Y109.234 E16.47366
G1 X117.774 Y111.138 E16.58238
G1 X117.294 Y111.869 E16.62601
G1 X115.955 Y113.616 E16.73582
G1 X115.403 Y114.241 E16.77742
G1 X114.007 Y115.616 E16.87518
G1 X113.362 Y116.167 E16.9175
G1 X111.522 Y117.526 E17.03162
G1 X110.788 Y117.99 E17.07495
G1 X108.983 Y118.956 E17.17708
G1 X108.313 Y119.263 E17.21385
G1 X106.811 Y119.843 E17.29418
G1 X106.101 Y120.068 E17.33134
G1 X104.006 Y120.59 E17.43905
G1 X103.283 Y120.724 E17.47574
G1 X101.819 Y120.903 E17.54932
G1 X101.091 Y120.947 E17.58571
G1 X98.908 Y120.947 E17.69462
G1 X97.953 Y120.87 E17.74242
G1 X95.392 Y120.457 E17.87184
G1 X94.678 Y120.297 E17.90834
G1 X93.656 Y120.001 E17.96143
G1 X93.051 Y119.791 E17.99338
G1 X91.063 Y118.977 E18.10055
G1 X90.316 Y118.608 E18.14212
G1 X88.578 Y117.595 E18.24248
G1 X87.881 Y117.12 E18.28456
G1 X86.16 Y115.761 E18.39396
G1 X85.518 Y115.174 E18.43736
G1 X84.049 Y113.62 E18.54405
G1 X83.522 Y112.98 E18.58541
G1 X82.335 Y111.314 E18.68747
G1 X81.898 Y110.598 E18.72932
G1 X80.929 Y108.733 E18.83417
G1 X80.627 Y108.053 E18.87129
G1 X80.052 Y106.502 E18.95382
G1 X79.86 Y105.883 E18.98615
G1 X79.482 Y104.384 E19.06328
G1 X79.344 Y103.641 E19.10098
G1 X79.074 Y101.42 E19.2126
G1 X79.032 Y100.547 E19.25621
G1 X79.085 Y98.41 E19.36285
G1 X79.162 Y97.588 E19.40404
G1 X79.483 Y95.631 E19.50298
G1 X79.645 Y94.919 E19.53941
G1 X80.112 Y93.321 E19.62247
G1 X80.371 Y92.607 E19.66036
G1 X81.226 Y90.645 E19.76714
G1 X81.617 Y89.896 E19.80929
G1 X82.695 Y88.145 E19.91188
G1 X83.168 Y87.482 E19.95251
G1 X84.452 Y85.919 E20.05343
G1 X85.047 Y85.293 E20.09652
G0 F3600 X85.316 Y85.589
G1 F2400 X87.019 Y84.037 E20.21147
G1 X87.637 Y83.549 E20.25075
G1 X89.204 Y82.481 E20.34536
G1 X89.875 Y82.088 E20.38416
G1 X91.911 Y81.081 E20.49748
G1 X92.569 Y80.807 E20.53304
G1 X93.999 Y80.314 E20.6085
G1 X94.563 Y80.152 E20.63778
G1 X96.185 Y79.777 E20.72084
G1 X96.875 Y79.662 E20.75574
G1 X98.935 Y79.451 E20.85905
G1 X99.698 Y79.425 E20.89713
G1 X101.709 Y79.494 E20.99752
G1 X102.398 Y79.561 E21.03206
G1 X104.099 Y79.832 E21.11799
G1 X104.802 Y79.991 E21.15395
G1 X106.793 Y80.578 E21.25751
G1 X107.505 Y80.841 E21.29538
G1 X109.36 Y81.675 E21.39685
G1 X110.073 Y82.06 E21.43727
G1 X112.007 Y83.292 E21.55168
G1 X112.647 Y83.767 E21.59144
G1 X114.151 Y85.059 E21.69036
G1 X114.706 Y85.608 E21.72931
G1 X116.135 Y87.232 E21.83723
G1 X116.621 Y87.871 E21.87728
G1 X117.796 Y89.672 E21.98456
G1 X118.178 Y90.359 E22.02378
G1 X119.061 Y92.246 E22.12772
G1 X119.314 Y92.884 E22.16196
G1 X119.789 Y94.342 E22.23847
G1 X119.962 Y95.015 E22.27313
G1 X120.385 Y97.206 E22.38446
G1 X120.481 Y98 E22.42436
G1 X120.578 Y100.025 E22.52551
G1 X120.563 Y100.782 E22.56328
G1 X120.386 Y102.803 E22.66449
G1 X120.263 Y103.576 E22.70354
G1 X119.776 Y105.681 E22.81134
G1 X119.548 Y106.426 E22.85021
G1 X118.82 Y108.322 E22.95153
G1 X118.485 Y109.039 E22.99102
G1 X117.425 Y110.943 E23.09974
G1 X116.977 Y111.626 E23.14049
G1 X115.638 Y113.373 E23.2503
G1 X115.123 Y113.956 E23.28911
G1 X113.727 Y115.331 E23.38687
G1 X113.124 Y115.846 E23.42643
G1 X111.284 Y117.205 E23.54055
G1 X110.599 Y117.637 E23.58095
G1 X108.794 Y118.603 E23.68309
G1 X108.169 Y118.89 E23.7174
G1 X106.667 Y119.47 E23.79773
G1 X106.004 Y119.68 E23.83243
G1 X103.909 Y120.202 E23.94014
G1 X103.235 Y120.327 E23.97434
G1 X101.771 Y120.506 E24.04793
G1 X101.091 Y120.547 E24.08191
G1 X98.908 Y120.547 E24.19082
G1 X98.016 Y120.476 E24.23547
G1 X95.455 Y120.063 E24.36489
G1 X94.789 Y119.913 E24.39895
G1 X93.767 Y119.617 E24.45203
G1 X93.203 Y119.42 E24.48183
G1 X91.215 Y118.606 E24.58901
G1 X90.517 Y118.262 E24.62783
G1 X88.779 Y117.249 E24.72819
G1 X88.128 Y116.806 E24.76748
G1 X86.407 Y115.447 E24.87688
G1 X85.808 Y114.899 E24.91738
G1 X84.339 Y113.345 E25.02407
G1 X83.848 Y112.747 E25.06267
G1 X82.661 Y111.081 E25.16473
G1 X82.253 Y110.414 E25.20374
G1 X81.284 Y108.549 E25.30859
G1 X81.002 Y107.914 E25.34326
G1 X80.427 Y106.363 E25.42578
G1 X80.248 Y105.785 E25.45597
G1 X79.87 Y104.286 E25.5331
G1 X79.741 Y103.593 E25.56827
G1 X79.471 Y101.372 E25.67989
G1 X79.432 Y100.557 E25.72059
G1 X79.485 Y98.42 E25.82724
G1 X79.557 Y97.653 E25.86568
G1 X79.878 Y95.696 E25.96462
G1 X80.029 Y95.031 E25.99864
G1 X80.496 Y93.433 E26.0817
G1 X80.737 Y92.767 E26.11703
G1 X81.592 Y90.805 E26.22381
G1 X81.957 Y90.106 E26.26315
G1 X83.035 Y88.355 E26.36573
G1 X83.477 Y87.736 E26.40368
G1 X84.761 Y86.173 E26.5046
G1 X85.316 Y85.589 E26.54479
G0 F3600 X85.585 Y85.885
G1 F2400 X87.288 Y84.333 E26.65975
G1 X87.862 Y83.879 E26.69626
G1 X89.429 Y82.811 E26.79087
G1 X90.053 Y82.447 E26.82691
G1 X92.089 Y81.44 E26.94023
G1 X92.699 Y81.185 E26.97321
G1 X94.129 Y80.692 E27.04868
G1 X94.653 Y80.542 E27.07587
G1 X96.275 Y80.167 E27.15893
G1 X96.916 Y80.06 E27.19135
G1 X98.976 Y79.849 E27.29466
G1 X99.684 Y79.825 E27.33
G1 X101.695 Y79.894 E27.43039
G1 X102.335 Y79.956 E27.46247
G1 X104.036 Y80.227 E27.5484
G1 X104.689 Y80.374 E27.5818
G1 X106.68 Y80.961 E27.68536
G1 X107.341 Y81.206 E27.72053
G1 X109.196 Y82.04 E27.82199
G1 X109.858 Y82.397 E27.85952
G1 X111.792 Y83.629 E27.97392
G1 X112.386 Y84.071 E28.01086
G1 X113.89 Y85.363 E28.10978
G1 X114.406 Y85.872 E28.14594
G1 X115.835 Y87.496 E28.25386
G1 X116.286 Y88.09 E28.29107
G1 X117.461 Y89.891 E28.39835
G1 X117.816 Y90.528 E28.43474
G1 X118.699 Y92.415 E28.53868
G1 X118.933 Y93.008 E28.57048
G1 X119.408 Y94.466 E28.64698
G1 X119.57 Y95.091 E28.6792
G1 X119.993 Y97.282 E28.79052
G1 X120.081 Y98.019 E28.82755
G1 X120.178 Y100.044 E28.9287
G1 X120.164 Y100.747 E28.96378
G1 X119.987 Y102.768 E29.06499
G1 X119.873 Y103.486 E29.10126
G1 X119.386 Y105.591 E29.20905
G1 X119.174 Y106.283 E29.24516
G1 X118.446 Y108.179 E29.34649
G1 X118.135 Y108.844 E29.38311
G1 X117.075 Y110.748 E29.49183
G1 X116.659 Y111.382 E29.52966
G1 X115.32 Y113.129 E29.63948
G1 X114.842 Y113.671 E29.67553
G1 X113.446 Y115.046 E29.77329
G1 X112.886 Y115.524 E29.81002
G1 X111.046 Y116.883 E29.92414
G1 X110.411 Y117.285 E29.96164
G1 X108.606 Y118.251 E30.06378
G1 X108.025 Y118.517 E30.09566
G1 X106.523 Y119.097 E30.17598
G1 X105.907 Y119.292 E30.20822
G1 X103.812 Y119.814 E30.31593
G1 X103.186 Y119.93 E30.3477
G1 X101.722 Y120.109 E30.42128
G1 X101.091 Y120.147 E30.45282
G1 X98.908 Y120.147 E30.56173
G1 X98.08 Y120.081 E30.60317
G1 X95.519 Y119.668 E30.73259
G1 X94.9 Y119.529 E30.76424
G1 X93.878 Y119.233 E30.81732
G1 X93.355 Y119.05 E30.84497
G1 X91.367 Y118.236 E30.95214
G1 X90.718 Y117.917 E30.98822
G1 X88.98 Y116.904 E31.08858
G1 X88.376 Y116.492 E31.12506
G1 X86.655 Y115.133 E31.23446
G1 X86.099 Y114.624 E31.27207
G1 X84.63 Y113.07 E31.37876
G1 X84.174 Y112.515 E31.41459
G1 X82.987 Y110.849 E31.51665
G1 X82.608 Y110.229 E31.5529
G1 X81.639 Y108.364 E31.65776
G1 X81.377 Y107.775 E31.68992
G1 X80.802 Y106.224 E31.77244
G1 X80.636 Y105.687 E31.80049
G1 X80.258 Y104.188 E31.87761
G1 X80.138 Y103.545 E31.91025
G1 X79.868 Y101.324 E32.02187
G1 X79.832 Y100.567 E32.05968
G1 X79.885 Y98.43 E32.16632
G1 X79.952 Y97.717 E32.20205
G1 X80.273 Y95.76 E32.30099
G1 X80.413 Y95.143 E32.33256
G1 X80.88 Y93.545 E32.41562
G1 X81.104 Y92.927 E32.44841
G1 X81.959 Y90.965 E32.55519
G1 X82.298 Y90.316 E32.59172
G1 X83.376 Y88.565 E32.6943
G1 X83.786 Y87.99 E32.72954
G1 X85.07 Y86.427 E32.83045
G1 X85.585 Y85.885 E32.86775
G0 F3600 X85.855 Y86.18
G1 F2400 X87.558 Y84.628 E32.98271
G1 X88.088 Y84.21 E33.01638
G1 X89.655 Y83.142 E33.11099
G1 X90.23 Y82.805 E33.14424
G1 X92.266 Y81.798 E33.25756
G1 X92.83 Y81.563 E33.28805
G1 X94.26 Y81.07 E33.36351
G1 X94.743 Y80.931 E33.38858
G1 X96.365 Y80.556 E33.47164
G1 X96.957 Y80.458 E33.50158
G1 X99.017 Y80.247 E33.60489
G1 X99.671 Y80.225 E33.63754
G1 X101.682 Y80.294 E33.73792
G1 X102.272 Y80.351 E33.7675
G1 X103.973 Y80.622 E33.85343
G1 X104.575 Y80.758 E33.88422
G1 X106.566 Y81.345 E33.98778
G1 X107.177 Y81.571 E34.02028
G1 X109.032 Y82.405 E34.12175
G1 X109.643 Y82.735 E34.15639
G1 X111.577 Y83.967 E34.2708
G1 X112.126 Y84.374 E34.30489
G1 X113.63 Y85.666 E34.40381
G1 X114.106 Y86.136 E34.43718
G1 X115.535 Y87.76 E34.54511
G1 X115.951 Y88.308 E34.57943
G1 X117.126 Y90.109 E34.68672
G1 X117.454 Y90.698 E34.72035
G1 X118.337 Y92.585 E34.82429
G1 X118.553 Y93.132 E34.85363
G1 X119.028 Y94.59 E34.93013
G1 X119.177 Y95.167 E34.95987
G1 X119.6 Y97.358 E35.07119
G1 X119.682 Y98.038 E35.10536
G1 X119.779 Y100.063 E35.20651
G1 X119.766 Y100.712 E35.23889
G1 X119.589 Y102.733 E35.34011
G1 X119.483 Y103.396 E35.3736
G1 X118.996 Y105.501 E35.4814
G1 X118.801 Y106.14 E35.51473
G1 X118.073 Y108.036 E35.61605
G1 X117.786 Y108.65 E35.64987
G1 X116.726 Y110.554 E35.75859
G1 X116.342 Y111.139 E35.7935
G1 X115.003 Y112.886 E35.90331
