;FLAVOR:Marlin
;TIME:1216
;Filament used: 1.30158m
;Layer height: 0.15
;Generated with Cura_SteamEngine 3.3.1
M190 S30
M104 S207
M109 S207
M82 ;absolute extrusion mode
G21 ;metric values
G90 ;absolute positioning
M82 ;set extruder to absolute mode
M107 ;start with the fan off
G28 X0 Y0 ;move X/Y to min endstops
G28 Z0 ;move Z to min endstops
G1 Z15.0 F9000 ;move the platform down 15mm
G92 E0 ;zero the extruded length
G1 F200 E3 ;extrude 3mm of feed stock
G92 E0 ;zero the extruded length again
G1 F9000
;Put printing message on LCD screen
M117 Printing...
G92 E0
G1 F1500 E-2.5
;LAYER_COUNT:100
;LAYER:0
M107
G0 F3600 X84.994 Y84.214 Z0.3
;TYPE:SKIRT
G1 F1500 E0
G1 F2400 X85.702 Y83.578 E0.04748
G1 X87.54 Y82.145 E0.16376
G1 X88.366 Y81.593 E0.21332
G1 X90.173 Y80.568 E0.31697
G1 X91.021 Y80.162 E0.36387
G1 X92.955 Y79.395 E0.46767
G1 X93.724 Y79.142 E0.50806
G1 X95.15 Y78.765 E0.58165
G1 X95.918 Y78.609 E0.62074
G1 X97.889 Y78.325 E0.72009
G1 X98.868 Y78.255 E0.76906
G1 X101.18 Y78.258 E0.88441
G1 X102.147 Y78.328 E0.93278
G1 X104.098 Y78.611 E1.03113
G1 X104.869 Y78.769 E1.0704
G1 X106.302 Y79.15 E1.14437
G1 X107.068 Y79.403 E1.18462
G1 X109.007 Y80.174 E1.28872
G1 X109.753 Y80.525 E1.32985
G1 X111.11 Y81.266 E1.40699
G1 X111.762 Y81.671 E1.44528
G1 X113.288 Y82.744 E1.53835
G1 X114.031 Y83.349 E1.58616
G1 X115.727 Y84.941 E1.70221
G1 X116.405 Y85.679 E1.75221
G1 X117.703 Y87.319 E1.85655
G1 X118.24 Y88.105 E1.90404
G1 X119.302 Y89.92 E2.00896
G1 X119.707 Y90.732 E2.05423
G1 X120.445 Y92.498 E2.14972
G1 X120.745 Y93.383 E2.19634
G1 X121.307 Y95.51 E2.3061
G1 X121.472 Y96.341 E2.34836
G1 X121.673 Y97.836 E2.42362
G1 X121.733 Y98.627 E2.4632
G1 X121.767 Y100.64 E2.56364
G1 X121.72 Y101.563 E2.60975
G1 X121.476 Y103.603 E2.71225
G1 X121.295 Y104.545 E2.76011
G1 X120.735 Y106.648 E2.86868
G1 X120.436 Y107.524 E2.91486
G1 X119.697 Y109.289 E3.01032
G1 X119.281 Y110.12 E3.05669
G1 X118.18 Y111.985 E3.16474
G1 X117.707 Y112.683 E3.2068
G1 X116.756 Y113.915 E3.28445
G1 X116.263 Y114.485 E3.32205
G1 X115.008 Y115.784 E3.41216
G1 X114.296 Y116.424 E3.45992
G1 X112.457 Y117.856 E3.57621
G1 X111.635 Y118.405 E3.62552
G1 X109.827 Y119.431 E3.72923
G1 X109.19 Y119.75 E3.76478
G1 X108.202 Y120.181 E3.81855
G1 X107.666 Y120.388 E3.84722
G1 X106.309 Y120.848 E3.91871
G1 X105.635 Y121.039 E3.95366
G1 X104 Y121.411 E4.03731
G1 X103.155 Y121.547 E4.08001
G1 X101.127 Y121.746 E4.18167
G1 X100.252 Y121.776 E4.22535
G1 X98.381 Y121.718 E4.31874
G1 X97.462 Y121.626 E4.36482
G1 X95.308 Y121.263 E4.4738
G1 X94.457 Y121.063 E4.51741
G1 X92.884 Y120.584 E4.59945
G1 X92.113 Y120.297 E4.64049
G1 X90.274 Y119.483 E4.74083
G1 X89.446 Y119.046 E4.78754
G1 X87.655 Y117.937 E4.89263
G1 X86.799 Y117.309 E4.9456
G1 X84.844 Y115.626 E5.0743
G1 X84.191 Y114.984 E5.11998
G1 X83.223 Y113.892 E5.19279
G1 X82.7 Y113.221 E5.23523
G1 X81.412 Y111.339 E5.34901
G1 X80.878 Y110.409 E5.40251
G1 X79.823 Y108.181 E5.5255
G1 X79.523 Y107.435 E5.56561
G1 X79.195 Y106.458 E5.61703
G1 X79.031 Y105.891 E5.64648
G1 X78.657 Y104.343 E5.72593
G1 X78.513 Y103.536 E5.76683
G1 X78.275 Y101.501 E5.86904
G1 X78.23 Y100.573 E5.9154
G1 X78.271 Y98.555 E6.0161
G1 X78.355 Y97.623 E6.06278
G1 X78.688 Y95.534 E6.16832
G1 X78.868 Y94.723 E6.20976
G1 X79.3 Y93.222 E6.28769
G1 X79.534 Y92.546 E6.32338
G1 X80.122 Y91.097 E6.40139
G1 X80.474 Y90.361 E6.4421
G1 X81.462 Y88.576 E6.54388
G1 X81.962 Y87.801 E6.5899
G1 X83.178 Y86.172 E6.69131
G1 X83.738 Y85.513 E6.73446
G1 X84.994 Y84.214 E6.8246
G0 F3600 X85.282 Y84.492
G1 F2400 X85.948 Y83.894 E6.86926
G1 X87.786 Y82.461 E6.98553
G1 X88.563 Y81.941 E7.03218
G1 X90.37 Y80.916 E7.13583
G1 X91.169 Y80.534 E7.18001
G1 X93.103 Y79.767 E7.28381
G1 X93.826 Y79.529 E7.32178
G1 X95.252 Y79.152 E7.39537
G1 X95.975 Y79.004 E7.43219
G1 X97.946 Y78.72 E7.53154
G1 X98.867 Y78.655 E7.5776
G1 X101.179 Y78.658 E7.69295
G1 X102.09 Y78.724 E7.73852
G1 X104.041 Y79.007 E7.83687
G1 X104.766 Y79.156 E7.8738
G1 X106.199 Y79.537 E7.94777
G1 X106.92 Y79.775 E7.98565
G1 X108.859 Y80.546 E8.08976
G1 X109.561 Y80.876 E8.12846
G1 X110.918 Y81.617 E8.20559
G1 X111.532 Y81.999 E8.24167
G1 X113.058 Y83.072 E8.33474
G1 X113.757 Y83.641 E8.37971
G1 X115.453 Y85.233 E8.49576
G1 X116.091 Y85.927 E8.54279
G1 X117.389 Y87.567 E8.64713
G1 X117.895 Y88.307 E8.69186
G1 X118.957 Y90.122 E8.79677
G1 X119.338 Y90.886 E8.83936
G1 X120.076 Y92.652 E8.93485
G1 X120.359 Y93.485 E8.97875
G1 X120.921 Y95.612 E9.0885
G1 X121.076 Y96.394 E9.12828
G1 X121.277 Y97.889 E9.20353
G1 X121.333 Y98.634 E9.24081
G1 X121.367 Y100.647 E9.34125
G1 X121.323 Y101.515 E9.38461
G1 X121.079 Y103.555 E9.48711
G1 X120.908 Y104.442 E9.53218
G1 X120.348 Y106.545 E9.64076
G1 X120.067 Y107.37 E9.68424
G1 X119.328 Y109.135 E9.7797
G1 X118.936 Y109.917 E9.82334
G1 X117.835 Y111.782 E9.93139
G1 X117.39 Y112.439 E9.97098
G1 X116.439 Y113.671 E10.04863
G1 X115.976 Y114.207 E10.08396
G1 X114.721 Y115.506 E10.17407
G1 X114.05 Y116.109 E10.21908
G1 X112.211 Y117.541 E10.33537
G1 X111.438 Y118.057 E10.38173
G1 X109.63 Y119.083 E10.48545
G1 X109.03 Y119.383 E10.51891
G1 X108.042 Y119.814 E10.57269
G1 X107.538 Y120.009 E10.59965
G1 X106.181 Y120.469 E10.67114
G1 X105.546 Y120.649 E10.70407
G1 X103.911 Y121.021 E10.78772
G1 X103.116 Y121.149 E10.8279
G1 X101.088 Y121.348 E10.92956
G1 X100.265 Y121.376 E10.97064
G1 X98.394 Y121.318 E11.06403
G1 X97.528 Y121.232 E11.10745
G1 X95.374 Y120.869 E11.21643
G1 X94.574 Y120.68 E11.25744
G1 X93.001 Y120.201 E11.33947
G1 X92.275 Y119.931 E11.37812
G1 X90.436 Y119.117 E11.47845
G1 X89.657 Y118.706 E11.52239
G1 X87.866 Y117.597 E11.62749
G1 X87.06 Y117.006 E11.67735
G1 X85.105 Y115.323 E11.80605
G1 X84.491 Y114.718 E11.84906
G1 X83.523 Y113.626 E11.92186
G1 X83.03 Y112.996 E11.96177
G1 X81.742 Y111.114 E12.07555
G1 X81.24 Y110.238 E12.12592
G1 X80.185 Y108.01 E12.24891
G1 X79.902 Y107.308 E12.28667
G1 X79.574 Y106.331 E12.33808
G1 X79.42 Y105.797 E12.36581
G1 X79.046 Y104.249 E12.44526
G1 X78.91 Y103.489 E12.48378
G1 X78.672 Y101.454 E12.586
G1 X78.63 Y100.581 E12.6296
G1 X78.671 Y98.563 E12.7303
G1 X78.75 Y97.686 E12.77423
G1 X79.083 Y95.597 E12.87977
G1 X79.253 Y94.834 E12.91877
G1 X79.685 Y93.333 E12.9967
G1 X79.905 Y92.696 E13.03032
G1 X80.493 Y91.247 E13.10833
G1 X80.824 Y90.555 E13.1466
G1 X81.812 Y88.77 E13.24839
G1 X82.282 Y88.041 E13.29166
G1 X83.498 Y86.412 E13.39308
G1 X84.026 Y85.791 E13.43375
G1 X85.282 Y84.492 E13.52389
G0 F3600 X85.57 Y84.77
G1 F2400 X86.194 Y84.209 E13.56576
G1 X88.032 Y82.776 E13.68203
G1 X88.761 Y82.289 E13.72577
G1 X90.568 Y81.264 E13.82942
G1 X91.316 Y80.906 E13.87079
G1 X93.25 Y80.139 E13.97459
G1 X93.928 Y79.915 E14.01021
G1 X95.354 Y79.538 E14.0838
G1 X96.032 Y79.4 E14.11832
G1 X98.003 Y79.116 E14.21767
G1 X98.867 Y79.055 E14.26088
G1 X101.179 Y79.058 E14.37623
G1 X102.032 Y79.12 E14.41889
G1 X103.983 Y79.403 E14.51725
G1 X104.664 Y79.542 E14.55192
G1 X106.097 Y79.923 E14.6259
G1 X106.772 Y80.147 E14.66138
G1 X108.711 Y80.918 E14.76549
G1 X109.37 Y81.227 E14.8018
G1 X110.727 Y81.968 E14.87894
G1 X111.302 Y82.326 E14.91273
G1 X112.828 Y83.399 E15.0058
G1 X113.483 Y83.932 E15.04793
G1 X115.179 Y85.524 E15.16398
G1 X115.778 Y86.175 E15.20811
G1 X117.076 Y87.815 E15.31246
G1 X117.55 Y88.509 E15.35439
G1 X118.612 Y90.324 E15.4593
G1 X118.969 Y91.041 E15.49926
G1 X119.707 Y92.807 E15.59475
G1 X119.972 Y93.587 E15.63585
G1 X120.534 Y95.714 E15.74561
G1 X120.679 Y96.448 E15.78294
G1 X120.88 Y97.943 E15.85819
G1 X120.933 Y98.641 E15.89312
G1 X120.967 Y100.654 E15.99356
G1 X120.926 Y101.468 E16.03422
G1 X120.682 Y103.508 E16.13672
G1 X120.522 Y104.339 E16.17894
G1 X119.962 Y106.442 E16.28752
G1 X119.698 Y107.215 E16.32827
G1 X118.959 Y108.98 E16.42373
G1 X118.592 Y109.713 E16.46463
G1 X117.491 Y111.578 E16.57268
G1 X117.074 Y112.194 E16.60979
G1 X116.123 Y113.426 E16.68744
G1 X115.688 Y113.929 E16.72062
G1 X114.433 Y115.228 E16.81073
G1 X113.804 Y115.793 E16.85291
G1 X111.965 Y117.225 E16.96919
G1 X111.24 Y117.709 E17.01268
G1 X109.432 Y118.735 E17.1164
G1 X108.87 Y119.016 E17.14774
G1 X107.882 Y119.447 E17.20152
G1 X107.409 Y119.63 E17.22682
G1 X106.052 Y120.09 E17.29831
G1 X105.457 Y120.258 E17.32915
G1 X103.822 Y120.63 E17.41281
G1 X103.077 Y120.751 E17.45047
G1 X101.049 Y120.95 E17.55213
G1 X100.277 Y120.976 E17.59067
G1 X98.406 Y120.918 E17.68406
G1 X97.595 Y120.838 E17.72471
G1 X95.441 Y120.475 E17.83369
G1 X94.69 Y120.298 E17.87219
G1 X93.117 Y119.819 E17.95422
G1 X92.436 Y119.566 E17.99046
G1 X90.597 Y118.752 E18.0908
G1 X89.867 Y118.366 E18.132
G1 X88.076 Y117.257 E18.23709
G1 X87.32 Y116.703 E18.28385
G1 X85.365 Y115.02 E18.41255
G1 X84.79 Y114.453 E18.45284
G1 X83.822 Y113.361 E18.52564
G1 X83.361 Y112.77 E18.56304
G1 X82.073 Y110.888 E18.67681
G1 X81.601 Y110.067 E18.72406
G1 X80.546 Y107.839 E18.84705
G1 X80.281 Y107.181 E18.88244
G1 X79.953 Y106.204 E18.93385
G1 X79.809 Y105.703 E18.95986
G1 X79.435 Y104.155 E19.03931
G1 X79.308 Y103.443 E19.0754
G1 X79.07 Y101.408 E19.17761
G1 X79.03 Y100.589 E19.21852
G1 X79.071 Y98.571 E19.31922
G1 X79.145 Y97.748 E19.36045
G1 X79.478 Y95.659 E19.46598
G1 X79.637 Y94.945 E19.50248
G1 X80.069 Y93.444 E19.5804
G1 X80.275 Y92.847 E19.61191
G1 X80.863 Y91.398 E19.68993
G1 X81.173 Y90.748 E19.72586
G1 X82.161 Y88.963 E19.82764
G1 X82.603 Y88.28 E19.86823
G1 X83.819 Y86.651 E19.96965
G1 X84.314 Y86.069 E20.00776
G1 X85.57 Y84.77 E20.09791
G0 F3600 X85.857 Y85.048
G1 F2400 X86.44 Y84.525 E20.13699
G1 X88.278 Y83.092 E20.25326
G1 X88.958 Y82.637 E20.29408
G1 X90.765 Y81.612 E20.39772
G1 X91.464 Y81.277 E20.4364
G1 X93.398 Y80.51 E20.54019
G1 X94.031 Y80.302 E20.57344
G1 X95.457 Y79.925 E20.64702
G1 X96.089 Y79.796 E20.6792
G1 X98.06 Y79.512 E20.77855
G1 X98.866 Y79.455 E20.81887
G1 X101.178 Y79.458 E20.93421
G1 X101.975 Y79.516 E20.97408
G1 X103.926 Y79.799 E21.07243
G1 X104.561 Y79.929 E21.10477
G1 X105.994 Y80.31 E21.17875
G1 X106.624 Y80.518 E21.21185
G1 X108.563 Y81.289 E21.31595
G1 X109.178 Y81.578 E21.34985
G1 X110.535 Y82.319 E21.42699
G1 X111.072 Y82.653 E21.45854
G1 X112.598 Y83.726 E21.55161
G1 X113.21 Y84.224 E21.59097
G1 X114.906 Y85.816 E21.70702
G1 X115.464 Y86.424 E21.7482
G1 X116.762 Y88.064 E21.85254
G1 X117.204 Y88.711 E21.89163
G1 X118.266 Y90.526 E21.99655
G1 X118.6 Y91.195 E22.03385
G1 X119.338 Y92.961 E22.12934
G1 X119.585 Y93.689 E22.16769
G1 X120.147 Y95.816 E22.27745
G1 X120.283 Y96.501 E22.31229
G1 X120.484 Y97.996 E22.38755
G1 X120.533 Y98.647 E22.42012
G1 X120.567 Y100.66 E22.52057
G1 X120.528 Y101.42 E22.55853
G1 X120.284 Y103.46 E22.66103
G1 X120.135 Y104.236 E22.70046
G1 X119.575 Y106.339 E22.80903
G1 X119.329 Y107.061 E22.84708
G1 X118.59 Y108.826 E22.94255
G1 X118.247 Y109.51 E22.98072
G1 X117.146 Y111.375 E23.08877
G1 X116.757 Y111.95 E23.12341
G1 X115.806 Y113.182 E23.20105
G1 X115.4 Y113.651 E23.232
G1 X114.145 Y114.95 E23.32211
G1 X113.559 Y115.477 E23.36143
G1 X111.72 Y116.909 E23.47772
G1 X111.043 Y117.361 E23.51833
G1 X109.235 Y118.387 E23.62204
G1 X108.71 Y118.65 E23.65134
G1 X107.722 Y119.081 E23.70511
G1 X107.281 Y119.252 E23.72871
G1 X105.924 Y119.712 E23.8002
G1 X105.368 Y119.868 E23.82901
G1 X103.733 Y120.24 E23.91266
G1 X103.038 Y120.353 E23.94779
G1 X101.01 Y120.552 E24.04945
G1 X100.289 Y120.576 E24.08545
G1 X98.418 Y120.518 E24.17883
G1 X97.661 Y120.443 E24.21679
G1 X95.507 Y120.08 E24.32577
G1 X94.807 Y119.915 E24.36165
G1 X93.234 Y119.436 E24.44368
G1 X92.598 Y119.2 E24.47752
G1 X90.759 Y118.386 E24.57786
G1 X90.078 Y118.026 E24.61629
G1 X88.287 Y116.917 E24.72139
G1 X87.581 Y116.4 E24.76504
G1 X85.626 Y114.717 E24.89374
G1 X85.089 Y114.188 E24.93135
G1 X84.121 Y113.096 E25.00415
G1 X83.691 Y112.544 E25.03906
G1 X82.403 Y110.662 E25.15284
G1 X81.963 Y109.896 E25.19691
G1 X80.908 Y107.668 E25.3199
G1 X80.66 Y107.053 E25.35298
G1 X80.332 Y106.076 E25.4044
G1 X80.198 Y105.609 E25.42863
G1 X79.824 Y104.061 E25.50809
G1 X79.705 Y103.397 E25.54174
G1 X79.467 Y101.362 E25.64396
G1 X79.43 Y100.597 E25.68217
G1 X79.471 Y98.579 E25.78287
G1 X79.54 Y97.811 E25.82134
G1 X79.873 Y95.722 E25.92688
G1 X80.021 Y95.055 E25.96096
G1 X80.453 Y93.554 E26.03889
G1 X80.646 Y92.997 E26.0683
G1 X81.234 Y91.548 E26.14631
G1 X81.523 Y90.942 E26.17981
G1 X82.511 Y89.157 E26.28159
G1 X82.923 Y88.519 E26.31948
G1 X84.139 Y86.89 E26.4209
G1 X84.601 Y86.347 E26.45647
G1 X85.857 Y85.048 E26.54662
G0 F3600 X86.145 Y85.326
G1 F2400 X86.686 Y84.84 E26.5829
G1 X88.524 Y83.407 E26.69917
G1 X89.155 Y82.985 E26.73705
G1 X90.962 Y81.96 E26.84069
G1 X91.611 Y81.649 E26.8766
G1 X93.545 Y80.882 E26.9804
G1 X94.133 Y80.689 E27.01127
G1 X95.559 Y80.312 E27.08486
G1 X96.146 Y80.192 E27.11475
G1 X98.117 Y79.908 E27.2141
G1 X98.866 Y79.855 E27.25156
G1 X101.178 Y79.858 E27.36691
G1 X101.917 Y79.912 E27.40387
G1 X103.868 Y80.195 E27.50223
G1 X104.458 Y80.316 E27.53228
G1 X105.891 Y80.697 E27.60625
G1 X106.476 Y80.89 E27.63698
G1 X108.415 Y81.661 E27.74109
G1 X108.986 Y81.929 E27.77256
G1 X110.343 Y82.67 E27.84969
G1 X110.842 Y82.98 E27.879
G1 X112.368 Y84.053 E27.97207
G1 X112.936 Y84.516 E28.00863
G1 X114.632 Y86.108 E28.12468
G1 X115.15 Y86.672 E28.16289
G1 X116.448 Y88.312 E28.26723
G1 X116.859 Y88.913 E28.30356
G1 X117.921 Y90.728 E28.40847
G1 X118.231 Y91.349 E28.4431
G1 X118.969 Y93.115 E28.53859
G1 X119.198 Y93.792 E28.57424
G1 X119.76 Y95.919 E28.684
G1 X119.887 Y96.554 E28.71631
G1 X120.088 Y98.049 E28.79157
G1 X120.133 Y98.654 E28.82183
G1 X120.167 Y100.667 E28.92228
G1 X120.131 Y101.373 E28.95755
G1 X119.887 Y103.413 E29.06005
G1 X119.749 Y104.133 E29.09662
G1 X119.189 Y106.236 E29.2052
G1 X118.961 Y106.906 E29.24051
G1 X118.222 Y108.671 E29.33597
G1 X117.903 Y109.307 E29.37147
G1 X116.802 Y111.172 E29.47952
G1 X116.44 Y111.705 E29.51166
G1 X115.489 Y112.937 E29.58931
G1 X115.113 Y113.373 E29.61803
G1 X113.858 Y114.672 E29.70814
G1 X113.313 Y115.162 E29.74471
G1 X111.474 Y116.594 E29.86099
G1 X110.845 Y117.014 E29.89872
G1 X109.037 Y118.04 E30.00244
G1 X108.55 Y118.283 E30.02959
G1 X107.562 Y118.714 E30.08337
G1 X107.152 Y118.873 E30.10531
G1 X105.795 Y119.333 E30.17679
G1 X105.28 Y119.478 E30.20348
G1 X103.645 Y119.85 E30.28714
G1 X102.999 Y119.955 E30.31979
G1 X100.971 Y120.154 E30.42145
G1 X100.302 Y120.177 E30.45485
G1 X98.431 Y120.119 E30.54824
G1 X97.728 Y120.049 E30.58349
G1 X95.574 Y119.686 E30.69247
G1 X94.923 Y119.532 E30.72584
G1 X93.35 Y119.053 E30.80788
G1 X92.76 Y118.834 E30.83927
G1 X90.921 Y118.02 E30.93961
G1 X90.288 Y117.686 E30.97531
G1 X88.497 Y116.577 E31.08041
G1 X87.842 Y116.097 E31.12092
G1 X85.887 Y114.414 E31.24962
G1 X85.389 Y113.922 E31.28455
G1 X84.421 Y112.83 E31.35735
G1 X84.021 Y112.318 E31.38977
G1 X82.733 Y110.436 E31.50354
G1 X82.324 Y109.724 E31.54451
G1 X81.269 Y107.496 E31.6675
G1 X81.039 Y106.926 E31.69816
G1 X80.711 Y105.949 E31.74958
G1 X80.586 Y105.515 E31.77211
G1 X80.212 Y103.967 E31.85156
G1 X80.102 Y103.35 E31.88283
G1 X79.864 Y101.315 E31.98505
G1 X79.83 Y100.605 E32.02051
G1 X79.871 Y98.587 E32.12121
G1 X79.935 Y97.874 E32.15692
G1 X80.268 Y95.785 E32.26246
G1 X80.406 Y95.166 E32.2941
G1 X80.838 Y93.665 E32.37203
G1 X81.017 Y93.148 E32.39932
G1 X81.605 Y91.699 E32.47734
G1 X81.873 Y91.136 E32.50845
G1 X82.861 Y89.351 E32.61023
G1 X83.244 Y88.758 E32.64545
G1 X84.46 Y87.129 E32.74687
G1 X84.889 Y86.625 E32.77989
G1 X86.145 Y85.326 E32.87004
G0 F3600 X86.432 Y85.604
G1 F2400 X86.932 Y85.156 E32.90353
G1 X88.77 Y83.723 E33.0198
G1 X89.353 Y83.333 E33.0548
G1 X91.16 Y82.308 E33.15844
G1 X91.758 Y82.021 E33.19154
G1 X93.692 Y81.254 E33.29533
G1 X94.235 Y81.075 E33.32386
G1 X95.661 Y80.698 E33.39745
G1 X96.203 Y80.588 E33.42504
G1 X98.174 Y80.304 E33.52439
G1 X98.865 Y80.255 E33.55895
G1 X101.177 Y80.258 E33.67429
G1 X101.86 Y80.308 E33.70846
G1 X103.811 Y80.591 E33.80681
G1 X104.355 Y80.702 E33.83451
G1 X105.788 Y81.083 E33.90849
G1 X106.329 Y81.262 E33.93692
G1 X108.268 Y82.033 E34.04102
G1 X108.794 Y82.28 E34.07002
G1 X110.151 Y83.021 E34.14715
G1 X110.612 Y83.307 E34.17422
G1 X112.138 Y84.38 E34.26729
G1 X112.662 Y84.807 E34.30101
G1 X114.358 Y86.399 E34.41706
G1 X114.837 Y86.92 E34.45237
G1 X116.135 Y88.56 E34.55672
