;FLAVOR:Marlin
;TIME:5216
;Filament used: 2.17084m
;Layer height: 0.2
;Generated with Cura_SteamEngine 3.3.1
M190 S130
M104 S250
M109 S250
M82 ;absolute extrusion mode
G21 ;metric values
G90 ;absolute positioning
M82 ;set extruder to absolute mode
M107 ;start with the fan off
G28 X0 Y0 ;move X/Y to min endstops
G28 Z0 ;move Z to min endstops
G1 Z15.0 F9000 ;move the platform down 15mm
G92 E0 ;zero the extruded length
G1 F200 E3 ;extrude 3mm of feed stock
G92 E0 ;zero the extruded length again
G1 F9000
;Put printing message on LCD screen
M117 Printing...
G92 E0
G1 F1500 E-6.5
;LAYER_COUNT:87
;LAYER:0
M107
G0 F3600 X92.904 Y71.765 Z0.3
;TYPE:SKIRT
G1 F1500 E0
G1 F600 X93.246 Y71.352 E0.02675
G1 X93.646 Y70.995 E0.0535
G1 X94.095 Y70.701 E0.08028
G1 X94.541 Y70.493 E0.10483
G1 X96.363 Y69.79 E0.20226
G1 X96.876 Y69.635 E0.229
G1 X97.313 Y69.566 E0.25107
G1 X100.141 Y69.293 E0.39281
G1 X100.716 Y69.283 E0.4215
G1 X102.486 Y69.396 E0.50999
G1 X103.018 Y69.47 E0.53679
G1 X103.359 Y69.562 E0.55441
G1 X104.967 Y70.079 E0.63868
G1 X105.464 Y70.281 E0.66544
G1 X105.925 Y70.554 E0.69217
G1 X106.341 Y70.893 E0.71894
G1 X106.702 Y71.289 E0.74568
G1 X106.999 Y71.735 E0.77241
G1 X107.242 Y72.259 E0.80123
G1 X107.765 Y73.675 E0.87654
G1 X107.917 Y74.211 E0.90433
G1 X109.284 Y81.001 E1.24988
G1 X109.355 Y81.708 E1.28533
G1 X109.369 Y93.631 E1.88017
G1 X109.524 Y99.158 E2.15603
G1 X109.983 Y104.559 E2.42645
G1 X111.085 Y111.854 E2.79453
G1 X111.125 Y112.395 E2.8216
G1 X111.118 Y120.442 E3.22306
G1 X111.078 Y120.977 E3.24983
G1 X110.958 Y121.5 E3.2766
G1 X110.762 Y121.999 E3.30335
G1 X110.619 Y122.268 E3.31855
G1 X110.527 Y122.424 E3.32758
G1 X110.221 Y122.864 E3.35432
G1 X109.853 Y123.254 E3.38107
G1 X109.227 Y123.712 E3.41977
G1 X106.672 Y125.188 E3.56698
G1 X106.189 Y125.421 E3.59373
G1 X105.676 Y125.58 E3.62053
G1 X105.146 Y125.66 E3.64727
G1 X104.782 Y125.67 E3.66544
G1 X100.03 Y125.552 E3.90259
G1 X95.328 Y125.663 E4.13724
G1 X94.792 Y125.636 E4.16401
G1 X94.405 Y125.565 E4.18364
G1 X94.167 Y125.508 E4.19585
G1 X93.656 Y125.345 E4.22261
G1 X93.199 Y125.121 E4.248
G1 X90.781 Y123.719 E4.38745
G1 X90.339 Y123.417 E4.41416
G1 X89.946 Y123.051 E4.44095
G1 X89.515 Y122.482 E4.47656
G1 X89.402 Y122.297 E4.48738
G1 X89.157 Y121.819 E4.51417
G1 X88.986 Y121.311 E4.54091
G1 X88.892 Y120.783 E4.56767
G1 X88.874 Y120.42 E4.5858
G1 X88.873 Y112.4 E4.98592
G1 X88.926 Y111.785 E5.01672
G1 X89.461 Y108.7 E5.17293
G1 X90.156 Y103.263 E5.44639
G1 X90.544 Y97.808 E5.71923
G1 X90.631 Y93.688 E5.92482
G1 X90.641 Y81.718 E6.52201
G1 X90.722 Y80.962 E6.55994
G1 X91.895 Y75.525 E6.83743
G1 X92.29 Y73.239 E6.95317
G1 X92.42 Y72.719 E6.97991
G1 X92.626 Y72.224 E7.00666
G1 X92.904 Y71.765 E7.03343
G0 F3600 X93.281 Y71.927
G1 F600 X93.616 Y71.548 E7.05867
G1 X94.007 Y71.227 E7.08391
G1 X94.443 Y70.972 E7.10911
G1 X94.685 Y70.867 E7.12227
G1 X96.507 Y70.164 E7.2197
G1 X96.992 Y70.019 E7.24496
G1 X97.352 Y69.964 E7.26312
G1 X100.18 Y69.691 E7.40487
G1 X100.691 Y69.683 E7.43037
G1 X102.461 Y69.796 E7.51885
G1 X102.961 Y69.867 E7.54405
G1 X103.236 Y69.943 E7.55828
G1 X104.844 Y70.46 E7.64255
G1 X105.312 Y70.652 E7.66779
G1 X105.744 Y70.915 E7.69302
G1 X106.128 Y71.244 E7.71825
G1 X106.456 Y71.628 E7.74344
G1 X106.72 Y72.06 E7.7687
G1 X106.867 Y72.397 E7.78704
G1 X107.39 Y73.813 E7.86235
G1 X107.525 Y74.29 E7.88709
G1 X108.892 Y81.08 E8.23264
G1 X108.955 Y81.708 E8.26413
G1 X108.969 Y93.642 E8.85952
G1 X109.124 Y99.168 E9.13532
G1 X109.588 Y104.622 E9.4084
G1 X110.689 Y111.914 E9.77632
G1 X110.725 Y112.395 E9.80039
G1 X110.718 Y120.442 E10.20185
G1 X110.678 Y120.946 E10.22708
G1 X110.558 Y121.437 E10.2523
G1 X110.274 Y122.065 E10.28668
G1 X110.182 Y122.221 E10.29572
G1 X109.892 Y122.634 E10.32089
G1 X109.54 Y122.997 E10.34612
G1 X109.027 Y123.366 E10.37765
G1 X106.472 Y124.842 E10.52486
G1 X106.015 Y125.059 E10.5501
G1 X105.53 Y125.202 E10.57532
G1 X104.792 Y125.27 E10.6123
G1 X100.03 Y125.152 E10.84995
G1 X95.318 Y125.263 E11.0851
G1 X94.814 Y125.235 E11.11028
G1 X94.498 Y125.176 E11.12632
G1 X94.26 Y125.119 E11.13853
G1 X93.779 Y124.963 E11.16376
G1 X93.4 Y124.775 E11.18486
G1 X90.982 Y123.373 E11.32431
G1 X90.566 Y123.086 E11.34952
G1 X90.2 Y122.737 E11.37475
G1 X89.856 Y122.273 E11.40357
G1 X89.743 Y122.088 E11.41439
G1 X89.515 Y121.637 E11.4396
G1 X89.36 Y121.156 E11.46481
G1 X89.274 Y120.42 E11.50178
G1 X89.273 Y112.4 E11.9019
G1 X89.32 Y111.854 E11.92924
G1 X89.857 Y108.754 E12.0862
G1 X90.554 Y103.308 E12.36012
G1 X90.944 Y97.825 E12.63436
G1 X91.031 Y93.695 E12.84045
G1 X91.041 Y81.718 E13.43799
G1 X91.113 Y81.046 E13.47171
G1 X92.287 Y75.603 E13.7495
G1 X92.684 Y73.307 E13.86575
G1 X92.809 Y72.817 E13.89098
G1 X93.01 Y72.353 E13.91621
G1 X93.281 Y71.927 E13.9414
G1 F1500 E7.4414
G1 F300 Z1.3
G0 F3600 X96.032 Y73.981 Z1.3
;TYPE:SUPPORT
G1 F300 Z0.3
G1 F1500 E13.9414
G1 F600 X97.728 Y73.328 E14.03206
G1 X99.169 Y73.123 E14.10468
G1 X99.702 Y73.075 E14.13138
G1 X101.129 Y73.076 E14.20257
G1 X102.065 Y73.163 E14.24947
G1 X102.069 Y73.306 E14.25661
G1 X102.472 Y73.698 E14.28466
G1 X103.707 Y73.698 E14.34627
G1 X103.884 Y74.678 E14.39595
G1 X104.201 Y75.055 E14.42053
G1 X104.214 Y75.419 E14.4387
G1 X104.072 Y75.774 E14.45778
G1 X103.945 Y77.327 E14.53551
G1 X103.974 Y78.314 E14.58478
G1 X103.94 Y78.712 E14.60471
G1 X103.999 Y80.246 E14.68129
G1 X105.57 Y81.817 E14.79214
G1 X105.568 Y112.199 E16.3079
G1 X105.967 Y112.598 E16.33605
G1 X107.336 Y112.598 E16.40435
G1 X107.336 Y120.374 E16.7923
G1 X107.283 Y120.464 E16.79751
G1 X104.929 Y121.821 E16.93307
G1 X103.551 Y120.046 E17.04518
G1 X102.963 Y120.034 E17.07452
G1 X102.347 Y120.76 E17.12202
G1 X100.239 Y119.837 E17.23683
G1 X99.757 Y119.837 E17.26087
G1 X97.663 Y120.754 E17.37492
G1 X97.038 Y120.017 E17.42313
G1 X96.448 Y120.029 E17.45257
G1 X95.066 Y121.817 E17.56532
G1 X92.707 Y120.454 E17.70124
G1 X92.664 Y120.379 E17.70555
G1 X92.663 Y112.598 E18.09375
G1 X94.033 Y112.598 E18.1621
G1 X94.432 Y112.199 E18.19025
G1 X94.43 Y81.814 E19.70616
G1 X95.624 Y80.619 E19.79044
G1 X95.803 Y80.173 E19.81442
G1 X95.785 Y79.551 E19.84546
G1 X95.942 Y79.191 E19.86506
G1 X96.052 Y77.644 E19.94243
G1 X96.026 Y76.656 E19.99174
G1 X96.062 Y76.251 E20.01203
G1 X96.026 Y75.294 E20.05981
G1 X96.058 Y74.896 E20.07973
G1 X96.032 Y73.981 E20.12539
G1 F1500 E13.62539
G1 F300 Z1.3
G0 F3600 X97.883 Y80.798 Z1.3
G1 F300 Z0.3
G1 F1500 E20.12539
G1 F600 X97.239 Y81.442 E20.17083
G1 X97.239 Y81.679 E20.18266
G1 X97.186 Y81.732 E20.1864
G1 X97.184 Y111.664 E21.67971
G1 X97.237 Y111.717 E21.68345
G1 X97.237 Y111.954 E21.69527
G1 X97.881 Y112.598 E21.74071
G1 X102.12 Y112.598 E21.95219
G1 X102.764 Y111.954 E21.99763
G1 X102.764 Y111.717 E22.00946
G1 X102.817 Y111.664 E22.0132
G1 X102.814 Y81.732 E23.50651
G1 X102.761 Y81.679 E23.51025
G1 X102.761 Y81.442 E23.52207
G1 X102.117 Y80.798 E23.56751
G1 X97.883 Y80.798 E23.77875
G0 F3600 X98.642 Y80.638
G1 F600 X98.642 Y73.359 E24.1419
G1 F1500 E17.6419
G1 F300 Z1.3
G0 F3600 X101.308 Y73.254 Z1.3
G1 F300 Z0.3
G1 F1500 E24.1419
G1 F600 X101.308 Y80.638 E24.51029
G1 F1500 E18.01029
G1 F300 Z1.3
G0 F3600 X103.829 Y79.98 Z1.3
G1 F300 Z0.3
G1 F1500 E24.51029
G1 F600 X95.957 Y79.98 E24.90302
G0 F3600 X95.976 Y79.512
G1 F600 X95.976 Y120.379 E26.94188
G0 F3600 X96.29 Y119.97
G1 F600 X92.822 Y119.97 E27.1149
G1 F1500 E20.6149
G1 F300 Z1.3
G0 F3600 X93.31 Y120.617 Z1.3
G1 F300 Z0.3
G1 F1500 E27.1149
G1 F600 X93.31 Y112.758 E27.50699
G1 F1500 E21.00699
G1 F300 Z1.3
G0 F3600 X94.591 Y111.972 Z1.3
G1 F300 Z0.3
G1 F1500 E27.50699
G1 F600 X97.077 Y111.972 E27.63102
G1 F1500 E21.13102
G1 F300 Z1.3
G0 F3600 X98.642 Y112.758 Z1.3
G1 F300 Z0.3
G1 F1500 E27.63102
G1 F600 X98.642 Y120.151 E27.99986
G0 F3600 X99.054 Y119.97
G1 F600 X97.206 Y119.97 E28.09205
G1 F1500 E21.59205
G1 F300 Z1.3
G0 F3600 X100.94 Y119.97 Z1.3
G1 F300 Z0.3
G1 F1500 E28.09205
G1 F600 X102.806 Y119.97 E28.18515
G1 F1500 E21.68515
G1 F300 Z1.3
G0 F3600 X103.691 Y119.97 Z1.3
G1 F300 Z0.3
G1 F1500 E28.18515
G1 F600 X107.175 Y119.97 E28.35897
G1 F1500 E21.85897
G1 F300 Z1.3
G0 F3600 X106.64 Y120.651 Z1.3
G1 F300 Z0.3
G1 F1500 E28.35897
G1 F600 X106.64 Y112.758 E28.75275
G1 F1500 E22.25275
G1 F300 Z1.3
G0 F3600 X105.408 Y111.972 Z1.3
G1 F300 Z0.3
G1 F1500 E28.75275
G1 F600 X102.924 Y111.972 E28.87668
G1 F1500 E22.37668
G1 F300 Z1.3
G0 F3600 X101.308 Y112.758 Z1.3
G1 F300 Z0.3
G1 F1500 E28.87668
G1 F600 X101.308 Y120.13 E29.24447
G1 F1500 E22.74447
G1 F300 Z1.3
G0 F3600 X103.974 Y120.331 Z1.3
G1 F300 Z0.3
G1 F1500 E29.24447
G1 F600 X103.974 Y80.448 E31.23424
G1 F1500 E24.73424
G1 F300 Z1.3
G0 F3600 X102.974 Y82.646 Z1.3
G1 F300 Z0.3
G1 F1500 E31.23424
G1 F600 X105.409 Y82.646 E31.35572
G1 F1500 E24.85572
G1 F300 Z1.3
G0 F3600 X105.409 Y85.312 Z1.3
G1 F300 Z0.3
G1 F1500 E31.35572
G1 F600 X102.974 Y85.312 E31.4772
G1 F1500 E24.9772
G1 F300 Z1.3
G0 F3600 X102.974 Y87.978 Z1.3
G1 F300 Z0.3
G1 F1500 E31.4772
G1 F600 X105.409 Y87.978 E31.59869
G1 F1500 E25.09869
G1 F300 Z1.3
G0 F3600 X105.409 Y90.644 Z1.3
G1 F300 Z0.3
G1 F1500 E31.59869
G1 F600 X102.974 Y90.644 E31.72017
G1 F1500 E25.22017
G1 F300 Z1.3
G0 F3600 X102.975 Y93.31 Z1.3
G1 F300 Z0.3
G1 F1500 E31.72017
G1 F600 X105.409 Y93.31 E31.8416
G1 F1500 E25.3416
G1 F300 Z1.3
G0 F3600 X105.409 Y95.976 Z1.3
G1 F300 Z0.3
G1 F1500 E31.8416
G1 F600 X102.975 Y95.976 E31.96303
G1 F1500 E25.46303
G1 F300 Z1.3
G0 F3600 X102.975 Y98.642 Z1.3
G1 F300 Z0.3
G1 F1500 E31.96303
G1 F600 X105.408 Y98.642 E32.08442
G1 F1500 E25.58442
G1 F300 Z1.3
G0 F3600 X105.408 Y101.308 Z1.3
G1 F300 Z0.3
G1 F1500 E32.08442
G1 F600 X102.975 Y101.308 E32.2058
G1 F1500 E25.7058
G1 F300 Z1.3
G0 F3600 X102.976 Y103.974 Z1.3
G1 F300 Z0.3
G1 F1500 E32.2058
G1 F600 X105.408 Y103.974 E32.32713
G1 F1500 E25.82713
G1 F300 Z1.3
G0 F3600 X105.408 Y106.64 Z1.3
G1 F300 Z0.3
G1 F1500 E32.32713
G1 F600 X102.976 Y106.64 E32.44847
G1 F1500 E25.94847
G1 F300 Z1.3
G0 F3600 X102.976 Y109.306 Z1.3
G1 F300 Z0.3
G1 F1500 E32.44847
G1 F600 X105.408 Y109.306 E32.5698
G1 F1500 E26.0698
G1 F300 Z1.3
G0 F3600 X107.176 Y114.638 Z1.3
G1 F300 Z0.3
G1 F1500 E32.5698
G1 F600 X92.823 Y114.638 E33.28587
G1 F1500 E26.78587
G1 F300 Z1.3
G0 F3600 X92.823 Y117.304 Z1.3
G1 F300 Z0.3
G1 F1500 E33.28587
G1 F600 X107.176 Y117.304 E34.00195
G1 F1500 E27.50195
G1 F300 Z1.3
G0 F3600 X97.024 Y109.306 Z1.3
G1 F300 Z0.3
G1 F1500 E34.00195
G1 F600 X94.591 Y109.306 E34.12333
G1 F1500 E27.62333
G1 F300 Z1.3
G0 F3600 X94.591 Y106.64 Z1.3
G1 F300 Z0.3
G1 F1500 E34.12333
G1 F600 X97.024 Y106.64 E34.24471
G1 F1500 E27.74471
G1 F300 Z1.3
G0 F3600 X97.024 Y103.974 Z1.3
G1 F300 Z0.3
G1 F1500 E34.24471
G1 F600 X94.591 Y103.974 E34.36609
G1 F1500 E27.86609
G1 F300 Z1.3
G0 F3600 X94.591 Y101.308 Z1.3
G1 F300 Z0.3
G1 F1500 E34.36609
G1 F600 X97.024 Y101.308 E34.48748
G1 F1500 E27.98748
G1 F300 Z1.3
G0 F3600 X97.024 Y98.642 Z1.3
G1 F300 Z0.3
G1 F1500 E34.48748
G1 F600 X94.591 Y98.642 E34.60886
G1 F1500 E28.10886
G1 F300 Z1.3
G0 F3600 X94.59 Y95.976 Z1.3
G1 F300 Z0.3
G1 F1500 E34.60886
G1 F600 X97.025 Y95.976 E34.73034
G1 F1500 E28.23034
G1 F300 Z1.3
G0 F3600 X97.025 Y93.31 Z1.3
G1 F300 Z0.3
G1 F1500 E34.73034
G1 F600 X94.59 Y93.31 E34.85183
G1 F1500 E28.35183
G1 F300 Z1.3
G0 F3600 X94.59 Y90.644 Z1.3
G1 F300 Z0.3
G1 F1500 E34.85183
G1 F600 X97.025 Y90.644 E34.97331
G1 F1500 E28.47331
G1 F300 Z1.3
G0 F3600 X97.025 Y87.978 Z1.3
G1 F300 Z0.3
G1 F1500 E34.97331
G1 F600 X94.59 Y87.978 E35.09479
G1 F1500 E28.59479
G1 F300 Z1.3
G0 F3600 X94.59 Y85.312 Z1.3
G1 F300 Z0.3
G1 F1500 E35.09479
G1 F600 X97.025 Y85.312 E35.21627
G1 F1500 E28.71627
G1 F300 Z1.3
G0 F3600 X97.025 Y82.646 Z1.3
G1 F300 Z0.3
G1 F1500 E35.21627
G1 F600 X94.59 Y82.646 E35.33776
G1 F1500 E28.83776
G1 F300 Z1.3
G0 F3600 X96.203 Y77.314 Z1.3
G1 F300 Z0.3
G1 F1500 E35.33776
G1 F600 X103.785 Y77.314 E35.71602
G1 F1500 E29.21602
G1 F300 Z1.3
G0 F3600 X103.974 Y75.588 Z1.3
G1 F300 Z0.3
G1 F1500 E35.71602
G1 F600 X103.974 Y75.035 E35.74361
G0 F3600 X103.717 Y74.648
G1 F600 X96.21 Y74.648 E36.11814
G1 F1500 E29.61814
G1 F300 Z1.3
G0 F3600 X101.264 Y110.898 Z1.3
;TYPE:WALL-INNER
G1 F300 Z0.3
G1 F1500 E36.11814
G1 F600 X101.264 Y111.098 E36.12812
G1 X101.064 Y111.098 E36.13458
G1 X98.937 Y111.098 E36.24069
G1 X98.737 Y111.098 E36.25067
G1 X98.737 Y110.898 E36.25713
G1 X98.739 Y82.298 E37.68399
G1 X101.261 Y82.298 E37.80982
G1 X101.264 Y110.898 E39.23668
G0 F3600 X101.664 Y111.298
;TYPE:WALL-OUTER
G1 F600 X101.664 Y111.498 E39.24665
G1 X101.464 Y111.498 E39.25311
G1 X98.537 Y111.498 E39.39914
G1 X98.337 Y111.498 E39.40912
G1 X98.337 Y111.298 E39.41558
G1 X98.339 Y81.898 E40.88235
G1 X101.661 Y81.898 E41.04809
G1 X101.664 Y111.298 E42.51486
G0 F3600 X101.664 Y111.498
G0 X101.194 Y111.028
G0 X100.874 Y110.708
;TYPE:SKIN
G1 F600 X99.127 Y110.708 E42.60202
G1 X99.129 Y82.688 E43.99994
G1 X100.871 Y82.688 E44.08685
G1 X100.874 Y110.708 E45.48478
G0 F3600 X99.779 Y110.527
G1 F600 X99.306 Y110.054 E45.51815
G0 F3600 X99.306 Y109.489
G1 F600 X100.344 Y110.527 E45.59138
G1 X100.414 Y110.597
G0 F3600 X100.694 Y110.31
G1 F600 X99.306 Y108.923 E45.68928
G1 X99.236 Y108.853
G0 F3600 X99.306 Y108.357
G1 F600 X100.694 Y109.745 E45.78721
G1 X100.764 Y109.815
G0 F3600 X100.694 Y109.179
G1 F600 X99.306 Y107.792 E45.88511
G1 X99.236 Y107.722
G0 F3600 X99.306 Y107.226
G1 F600 X100.694 Y108.613 E45.983
G1 X100.764 Y108.683
G0 F3600 X100.694 Y108.048
G1 F600 X99.306 Y106.66 E46.08093
G1 X99.236 Y106.59
G0 F3600 X99.306 Y106.095
G1 F600 X100.694 Y107.482 E46.17883
G1 X100.764 Y107.552
G0 F3600 X100.694 Y106.916
G1 F600 X99.306 Y105.529 E46.27672
G1 X99.236 Y105.459
G0 F3600 X99.306 Y104.963
G1 F600 X100.694 Y106.35 E46.37462
G1 X100.764 Y106.42
G0 F3600 X100.693 Y105.784
G1 F600 X99.306 Y104.397 E46.47248
G1 X99.236 Y104.327
G0 F3600 X99.306 Y103.832
G1 F600 X100.693 Y105.218 E46.57031
G1 X100.763 Y105.288
G0 F3600 X100.693 Y104.653
G1 F600 X99.306 Y103.266 E46.66817
G1 X99.236 Y103.196
G0 F3600 X99.306 Y102.7
G1 F600 X100.693 Y104.087 E46.76603
G1 X100.763 Y104.157
G0 F3600 X100.693 Y103.521
G1 F600 X99.306 Y102.135 E46.86385
G1 X99.236 Y102.065
G0 F3600 X99.306 Y101.569
G1 F600 X100.693 Y102.956 E46.96171
G1 X100.763 Y103.026
G0 F3600 X100.693 Y102.39
G1 F600 X99.306 Y101.003 E47.05957
G1 X99.236 Y100.933
G0 F3600 X99.306 Y100.438
G1 F600 X100.693 Y101.824 E47.1574
G1 X100.763 Y101.894
G0 F3600 X100.692 Y101.258
G1 F600 X99.306 Y99.872 E47.25519
G1 X99.236 Y99.802
G0 F3600 X99.306 Y99.306
G1 F600 X100.692 Y100.692 E47.35298
G1 X100.762 Y100.762
G0 F3600 X100.692 Y100.127
G1 F600 X99.306 Y98.741 E47.45077
G1 X99.236 Y98.671
G0 F3600 X99.306 Y98.175
G1 F600 X100.692 Y99.561 E47.54856
G1 X100.762 Y99.631
G0 F3600 X100.692 Y98.995
G1 F600 X99.306 Y97.609 E47.64635
G1 X99.236 Y97.539
G0 F3600 X99.306 Y97.044
G1 F600 X100.692 Y98.429 E47.7441
G1 X100.762 Y98.499
G0 F3600 X100.692 Y97.864
G1 F600 X99.307 Y96.479 E47.84182
G1 X99.237 Y96.409
G0 F3600 X99.307 Y95.913
G1 F600 X100.692 Y97.298 E47.93954
G1 X100.762 Y97.368
G0 F3600 X100.692 Y96.732
G1 F600 X99.307 Y95.347 E48.03726
G1 X99.237 Y95.277
G0 F3600 X99.307 Y94.782
G1 F600 X100.692 Y96.166 E48.13494
G1 X100.762 Y96.236
G0 F3600 X100.692 Y95.6
G1 F600 X99.307 Y94.216 E48.23263
G1 X99.237 Y94.146
G0 F3600 X99.307 Y93.65
G1 F600 X100.692 Y95.035 E48.33034
G1 X100.762 Y95.105
G0 F3600 X100.692 Y94.469
G1 F600 X99.307 Y93.084 E48.42806
G1 X99.237 Y93.014
G0 F3600 X99.307 Y92.519
G1 F600 X100.692 Y93.903 E48.52575
G1 X100.762 Y93.973
G0 F3600 X100.692 Y93.338
G1 F600 X99.307 Y91.953 E48.62347
G1 X99.237 Y91.883
G0 F3600 X99.307 Y91.387
G1 F600 X100.692 Y92.772 E48.72119
G1 X100.762 Y92.842
G0 F3600 X100.692 Y92.206
G1 F600 X99.307 Y90.822 E48.81887
G1 X99.237 Y90.752
G0 F3600 X99.307 Y90.256
G1 F600 X100.691 Y91.64 E48.91652
G1 X100.761 Y91.71
G0 F3600 X100.691 Y91.074
G1 F600 X99.307 Y89.69 E49.01417
G1 X99.237 Y89.62
G0 F3600 X99.307 Y89.125
G1 F600 X100.691 Y90.508 E49.11178
G1 X100.761 Y90.578
G0 F3600 X100.691 Y89.943
G1 F600 X99.307 Y88.559 E49.20943
G1 X99.237 Y88.489
G0 F3600 X99.307 Y87.993
G1 F600 X100.691 Y89.377 E49.30708
G1 X100.761 Y89.447
G0 F3600 X100.691 Y88.811
