;FLAVOR:Marlin
;TIME:3876
;Filament used: 1.42889m
;Layer height: 0.1
;Generated with Cura_SteamEngine 3.3.1
M190 S30
M104 S208
M109 S208
M82 ;absolute extrusion mode
G21 ;metric values
G90 ;absolute positioning
M82 ;set extruder to absolute mode
M107 ;start with the fan off
G28 X0 Y0 ;move X/Y to min endstops
G28 Z0 ;move Z to min endstops
G1 Z15.0 F9000 ;move the platform down 15mm
G92 E0 ;zero the extruded length
G1 F200 E3 ;extrude 3mm of feed stock
G92 E0 ;zero the extruded length again
G1 F9000
;Put printing message on LCD screen
M117 Printing...
G92 E0
G1 F1500 E-2.5
;LAYER_COUNT:6
;LAYER:0
M107
G0 F3600 X61.643 Y62.598 Z0.3
;TYPE:SKIRT
G1 F1500 E0
G1 F900 X63.94 Y60.378 E0.15937
G1 X64.283 Y60.069 E0.1824
G1 X66.692 Y58.038 E0.3396
G1 X67.06 Y57.749 E0.36295
G1 X69.68 Y55.832 E0.52491
G1 X70.066 Y55.569 E0.54822
G1 X72.76 Y53.869 E0.70714
G1 X73.159 Y53.636 E0.7302
G1 X75.999 Y52.103 E0.89121
G1 X76.421 Y51.894 E0.9147
G1 X79.339 Y50.571 E1.07455
G1 X79.651 Y50.439 E1.09145
G1 X81.08 Y49.875 E1.16809
G1 X81.406 Y49.755 E1.18542
G1 X84.391 Y48.75 E1.34256
G1 X84.831 Y48.619 E1.36546
G1 X87.956 Y47.797 E1.52667
G1 X88.308 Y47.714 E1.54472
G1 X89.888 Y47.387 E1.62521
G1 X90.227 Y47.326 E1.6424
G1 X93.429 Y46.831 E1.80404
G1 X93.896 Y46.775 E1.82751
G1 X97.084 Y46.506 E1.98713
G1 X97.544 Y46.483 E2.0101
G1 X100.709 Y46.431 E2.16803
G1 X101.176 Y46.439 E2.19133
G1 X104.391 Y46.607 E2.35195
G1 X104.852 Y46.647 E2.37503
G1 X108.005 Y47.028 E2.53348
G1 X108.462 Y47.099 E2.55655
G1 X111.569 Y47.691 E2.71435
G1 X111.905 Y47.764 E2.7315
G1 X113.49 Y48.15 E2.81289
G1 X113.827 Y48.241 E2.83031
G1 X116.82 Y49.135 E2.98615
G1 X117.146 Y49.242 E3.00326
G1 X118.689 Y49.789 E3.08494
G1 X119.019 Y49.916 E3.10258
G1 X121.967 Y51.137 E3.26177
G1 X122.391 Y51.329 E3.28499
G1 X125.249 Y52.749 E3.44421
G1 X125.656 Y52.969 E3.46729
G1 X128.429 Y54.591 E3.62757
G1 X128.824 Y54.841 E3.65089
G1 X131.468 Y56.642 E3.81049
G1 X131.841 Y56.915 E3.83355
G1 X134.327 Y58.868 E3.99128
G1 X134.684 Y59.168 E4.01454
G1 X137.078 Y61.33 E4.17547
G1 X137.413 Y61.655 E4.19876
G1 X139.646 Y63.969 E4.35919
G1 X139.956 Y64.312 E4.38226
G1 X141.996 Y66.736 E4.54032
G1 X142.28 Y67.098 E4.56327
G1 X144.157 Y69.662 E4.72181
G1 X144.42 Y70.049 E4.74515
G1 X146.129 Y72.756 E4.90487
G1 X146.362 Y73.154 E4.92787
G1 X147.877 Y75.959 E5.08692
G1 X148.085 Y76.378 E5.11026
G1 X149.406 Y79.285 E5.26956
G1 X149.541 Y79.603 E5.2868
G1 X150.141 Y81.124 E5.36837
G1 X150.261 Y81.454 E5.38589
G1 X151.267 Y84.449 E5.54352
G1 X151.4 Y84.895 E5.56674
G1 X152.212 Y88.002 E5.72695
G1 X152.292 Y88.343 E5.74443
G1 X152.614 Y89.899 E5.8237
G1 X152.675 Y90.238 E5.84088
G1 X153.167 Y93.421 E6.00157
G1 X153.223 Y93.884 E6.02484
G1 X153.494 Y97.071 E6.18441
G1 X153.517 Y97.532 E6.20744
G1 X153.57 Y100.669 E6.36397
G1 X153.562 Y101.131 E6.38702
G1 X153.398 Y104.338 E6.54723
G1 X153.358 Y104.804 E6.57056
G1 X152.976 Y107.977 E6.73001
G1 X152.906 Y108.431 E6.75292
G1 X152.314 Y111.552 E6.91141
G1 X152.239 Y111.9 E6.92917
G1 X151.856 Y113.467 E7.00965
G1 X151.766 Y113.797 E7.02671
G1 X150.856 Y116.846 E7.18546
G1 X150.747 Y117.18 E7.20299
G1 X150.212 Y118.684 E7.28263
G1 X150.088 Y119.006 E7.29984
G1 X148.857 Y121.98 E7.46042
G1 X148.662 Y122.407 E7.48384
G1 X147.235 Y125.276 E7.64371
G1 X147.015 Y125.683 E7.66679
G1 X145.404 Y128.435 E7.82588
G1 X145.159 Y128.824 E7.84882
G1 X143.396 Y131.416 E8.00521
G1 X143.124 Y131.788 E8.0282
G1 X141.139 Y134.319 E8.18868
G1 X140.91 Y134.595 E8.20657
G1 X139.851 Y135.808 E8.2869
G1 X139.618 Y136.062 E8.3041
G1 X137.385 Y138.372 E8.46439
G1 X137.049 Y138.697 E8.48771
G1 X134.654 Y140.856 E8.64858
G1 X134.298 Y141.155 E8.67177
G1 X131.802 Y143.113 E8.83004
G1 X131.429 Y143.386 E8.8531
G1 X128.788 Y145.182 E9.01244
G1 X128.393 Y145.431 E9.03574
G1 X125.639 Y147.039 E9.19484
G1 X125.238 Y147.256 E9.21759
G1 X122.407 Y148.664 E9.37533
G1 X121.983 Y148.857 E9.39858
G1 X119.028 Y150.082 E9.55817
G1 X118.594 Y150.245 E9.5813
G1 X115.609 Y151.25 E9.73843
G1 X115.169 Y151.381 E9.76134
G1 X112.044 Y152.203 E9.92255
G1 X111.692 Y152.286 E9.94059
G1 X110.112 Y152.613 E10.02109
G1 X109.773 Y152.674 E10.03827
G1 X106.571 Y153.169 E10.19992
G1 X106.104 Y153.225 E10.22338
G1 X102.916 Y153.494 E10.383
G1 X102.456 Y153.517 E10.40598
G1 X99.291 Y153.569 E10.5639
G1 X98.824 Y153.561 E10.5872
G1 X95.609 Y153.393 E10.74782
G1 X95.148 Y153.353 E10.7709
G1 X91.995 Y152.972 E10.92935
G1 X91.538 Y152.901 E10.95243
G1 X88.431 Y152.309 E11.11022
G1 X88.095 Y152.236 E11.12738
G1 X86.51 Y151.85 E11.20876
G1 X86.173 Y151.759 E11.22618
G1 X83.18 Y150.865 E11.38202
G1 X82.854 Y150.758 E11.39914
G1 X81.311 Y150.211 E11.48081
G1 X80.981 Y150.084 E11.49845
G1 X78.033 Y148.863 E11.65765
G1 X77.609 Y148.671 E11.68087
G1 X74.751 Y147.251 E11.84008
G1 X74.344 Y147.031 E11.86316
G1 X71.571 Y145.409 E12.02344
G1 X71.176 Y145.159 E12.04676
G1 X68.532 Y143.358 E12.20636
G1 X68.159 Y143.085 E12.22943
G1 X65.673 Y141.132 E12.38715
G1 X65.316 Y140.832 E12.41041
G1 X62.922 Y138.67 E12.57135
G1 X62.587 Y138.345 E12.59463
G1 X60.354 Y136.031 E12.75507
G1 X60.044 Y135.688 E12.77813
G1 X58.004 Y133.264 E12.93619
G1 X57.72 Y132.902 E12.95915
G1 X55.843 Y130.338 E13.11768
G1 X55.58 Y129.951 E13.14102
G1 X53.871 Y127.244 E13.30074
G1 X53.638 Y126.846 E13.32375
G1 X52.123 Y124.041 E13.4828
G1 X51.915 Y123.622 E13.50613
G1 X50.594 Y120.715 E13.66544
G1 X50.459 Y120.397 E13.68267
G1 X49.859 Y118.876 E13.76425
G1 X49.739 Y118.546 E13.78176
G1 X48.733 Y115.551 E13.93939
G1 X48.6 Y115.105 E13.96261
G1 X47.788 Y111.998 E14.12282
G1 X47.708 Y111.657 E14.1403
G1 X47.386 Y110.101 E14.21957
G1 X47.325 Y109.762 E14.23676
G1 X46.833 Y106.579 E14.39744
G1 X46.777 Y106.116 E14.42071
G1 X46.506 Y102.929 E14.58028
G1 X46.483 Y102.468 E14.60331
G1 X46.43 Y99.331 E14.75984
G1 X46.438 Y98.869 E14.78289
G1 X46.602 Y95.662 E14.9431
G1 X46.642 Y95.196 E14.96643
G1 X47.024 Y92.023 E15.12588
G1 X47.094 Y91.569 E15.1488
G1 X47.686 Y88.448 E15.30728
G1 X47.761 Y88.1 E15.32504
G1 X48.144 Y86.533 E15.40552
G1 X48.234 Y86.203 E15.42259
G1 X49.144 Y83.154 E15.58133
G1 X49.253 Y82.82 E15.59886
G1 X49.788 Y81.316 E15.6785
G1 X49.912 Y80.994 E15.69572
G1 X51.143 Y78.02 E15.8563
G1 X51.338 Y77.593 E15.87972
G1 X52.765 Y74.724 E16.03958
G1 X52.985 Y74.317 E16.06266
G1 X54.596 Y71.565 E16.22175
G1 X54.841 Y71.176 E16.24469
G1 X56.604 Y68.584 E16.40108
G1 X56.876 Y68.212 E16.42407
G1 X58.861 Y65.681 E16.58455
G1 X59.165 Y65.32 E16.60809
G1 X61.322 Y62.931 E16.76867
G1 X61.643 Y62.598 E16.79175
G0 F3600 X61.921 Y62.886
G1 F900 X64.218 Y60.666 E16.95112
G1 X64.541 Y60.375 E16.97281
G1 X66.95 Y58.344 E17.13001
G1 X67.296 Y58.072 E17.15197
G1 X69.916 Y56.155 E17.31393
G1 X70.28 Y55.908 E17.33588
G1 X72.974 Y54.208 E17.49481
G1 X73.349 Y53.988 E17.5165
G1 X76.189 Y52.455 E17.67751
G1 X76.586 Y52.258 E17.69962
G1 X79.504 Y50.935 E17.85947
G1 X79.797 Y50.811 E17.87534
G1 X81.226 Y50.247 E17.95198
G1 X81.534 Y50.135 E17.96833
G1 X84.519 Y49.13 E18.12547
G1 X84.933 Y49.006 E18.14703
G1 X88.058 Y48.184 E18.30824
G1 X88.389 Y48.106 E18.32521
G1 X89.969 Y47.779 E18.4057
G1 X90.288 Y47.721 E18.42188
G1 X93.49 Y47.226 E18.58353
G1 X93.93 Y47.174 E18.60563
G1 X97.118 Y46.905 E18.76525
G1 X97.551 Y46.883 E18.78688
G1 X100.716 Y46.831 E18.9448
G1 X101.155 Y46.839 E18.96671
G1 X104.37 Y47.007 E19.12732
G1 X104.804 Y47.044 E19.14905
G1 X107.957 Y47.425 E19.3075
G1 X108.387 Y47.492 E19.32921
G1 X111.494 Y48.084 E19.48701
G1 X111.81 Y48.153 E19.50315
G1 X113.395 Y48.539 E19.58453
G1 X113.713 Y48.625 E19.60097
G1 X116.706 Y49.519 E19.75681
G1 X117.012 Y49.619 E19.77287
G1 X118.555 Y50.166 E19.85454
G1 X118.866 Y50.285 E19.87116
G1 X121.814 Y51.506 E20.03035
G1 X122.213 Y51.687 E20.05221
G1 X125.071 Y53.107 E20.21142
G1 X125.454 Y53.315 E20.23317
G1 X128.227 Y54.937 E20.39344
G1 X128.599 Y55.172 E20.4154
G1 X131.243 Y56.973 E20.575
G1 X131.594 Y57.229 E20.59667
G1 X134.08 Y59.182 E20.7544
G1 X134.415 Y59.465 E20.77627
G1 X136.809 Y61.627 E20.93721
G1 X137.125 Y61.933 E20.95915
G1 X139.358 Y64.247 E21.11959
G1 X139.65 Y64.57 E21.14131
G1 X141.69 Y66.994 E21.29937
G1 X141.957 Y67.335 E21.32098
G1 X143.834 Y69.899 E21.47951
G1 X144.082 Y70.262 E21.50144
G1 X145.791 Y72.969 E21.66116
G1 X146.01 Y73.345 E21.68287
G1 X147.525 Y76.15 E21.84192
G1 X147.721 Y76.543 E21.86383
G1 X149.042 Y79.45 E22.02313
G1 X149.169 Y79.749 E22.03934
G1 X149.769 Y81.27 E22.12091
G1 X149.882 Y81.581 E22.13742
G1 X150.888 Y84.576 E22.29504
G1 X151.013 Y84.996 E22.31691
G1 X151.825 Y88.103 E22.47712
G1 X151.9 Y88.424 E22.49357
G1 X152.222 Y89.98 E22.57284
G1 X152.28 Y90.299 E22.58902
G1 X152.772 Y93.482 E22.7497
G1 X152.824 Y93.918 E22.77161
G1 X153.095 Y97.105 E22.93118
G1 X153.117 Y97.539 E22.95286
G1 X153.17 Y100.676 E23.10939
G1 X153.163 Y101.111 E23.1311
G1 X152.999 Y104.318 E23.2913
G1 X152.961 Y104.756 E23.31324
G1 X152.579 Y107.929 E23.47268
G1 X152.513 Y108.357 E23.49429
G1 X151.921 Y111.478 E23.65277
G1 X151.85 Y111.805 E23.66947
G1 X151.467 Y113.372 E23.74994
G1 X151.383 Y113.682 E23.76597
G1 X150.473 Y116.731 E23.92471
G1 X150.37 Y117.046 E23.94125
G1 X149.835 Y118.55 E24.02089
G1 X149.718 Y118.853 E24.03709
G1 X148.487 Y121.827 E24.19768
G1 X148.304 Y122.229 E24.21971
G1 X146.877 Y125.098 E24.37957
G1 X146.67 Y125.481 E24.40129
G1 X145.059 Y128.233 E24.56039
G1 X144.828 Y128.599 E24.58198
G1 X143.065 Y131.191 E24.73837
G1 X142.809 Y131.542 E24.76005
G1 X140.824 Y134.073 E24.92052
G1 X140.609 Y134.332 E24.93732
G1 X139.55 Y135.545 E25.01765
G1 X139.331 Y135.784 E25.03382
G1 X137.098 Y138.094 E25.19411
G1 X136.781 Y138.4 E25.21609
G1 X134.386 Y140.559 E25.37696
G1 X134.051 Y140.841 E25.39881
G1 X131.555 Y142.799 E25.55708
G1 X131.204 Y143.055 E25.57875
G1 X128.563 Y144.851 E25.73809
G1 X128.191 Y145.086 E25.76005
G1 X125.437 Y146.694 E25.91915
G1 X125.06 Y146.897 E25.94051
G1 X122.229 Y148.305 E26.09825
G1 X121.83 Y148.487 E26.12013
G1 X118.875 Y149.712 E26.27973
G1 X118.466 Y149.865 E26.30151
G1 X115.481 Y150.87 E26.45865
G1 X115.067 Y150.994 E26.48021
G1 X111.942 Y151.816 E26.64142
G1 X111.611 Y151.894 E26.65839
G1 X110.031 Y152.221 E26.73888
G1 X109.712 Y152.279 E26.75506
G1 X106.51 Y152.774 E26.9167
G1 X106.07 Y152.826 E26.93881
G1 X102.882 Y153.095 E27.09842
G1 X102.449 Y153.117 E27.12005
G1 X99.284 Y153.169 E27.27798
G1 X98.845 Y153.161 E27.29988
G1 X95.63 Y152.993 E27.4605
G1 X95.196 Y152.956 E27.48223
G1 X92.043 Y152.575 E27.64068
G1 X91.613 Y152.508 E27.66239
G1 X88.506 Y151.916 E27.82019
G1 X88.19 Y151.847 E27.83632
G1 X86.605 Y151.461 E27.91771
G1 X86.287 Y151.375 E27.93415
G1 X83.294 Y150.481 E28.08999
G1 X82.988 Y150.381 E28.10605
G1 X81.445 Y149.834 E28.18772
G1 X81.134 Y149.715 E28.20434
G1 X78.186 Y148.494 E28.36353
G1 X77.787 Y148.313 E28.38539
G1 X74.929 Y146.893 E28.5446
G1 X74.546 Y146.685 E28.56635
G1 X71.773 Y145.063 E28.72662
G1 X71.401 Y144.828 E28.74857
G1 X68.757 Y143.027 E28.90818
G1 X68.406 Y142.771 E28.92985
G1 X65.92 Y140.818 E29.08757
G1 X65.585 Y140.535 E29.10945
G1 X63.191 Y138.373 E29.27039
G1 X62.875 Y138.067 E29.29233
G1 X60.642 Y135.753 E29.45276
G1 X60.35 Y135.43 E29.47449
G1 X58.31 Y133.006 E29.63255
G1 X58.043 Y132.665 E29.65416
G1 X56.166 Y130.101 E29.81269
G1 X55.918 Y129.738 E29.83462
G1 X54.209 Y127.031 E29.99434
G1 X53.99 Y126.655 E30.01604
G1 X52.475 Y123.85 E30.17509
G1 X52.279 Y123.457 E30.197
G1 X50.958 Y120.55 E30.35631
G1 X50.831 Y120.251 E30.37251
G1 X50.231 Y118.73 E30.45409
G1 X50.118 Y118.419 E30.4706
G1 X49.112 Y115.424 E30.62822
G1 X48.987 Y115.004 E30.65008
G1 X48.175 Y111.897 E30.8103
G1 X48.1 Y111.576 E30.82674
G1 X47.778 Y110.02 E30.90602
G1 X47.72 Y109.701 E30.92219
G1 X47.228 Y106.518 E31.08288
G1 X47.176 Y106.082 E31.10479
G1 X46.905 Y102.895 E31.26436
G1 X46.883 Y102.461 E31.28604
G1 X46.83 Y99.324 E31.44257
G1 X46.837 Y98.889 E31.46427
G1 X47.001 Y95.682 E31.62448
G1 X47.039 Y95.244 E31.64641
G1 X47.421 Y92.071 E31.80586
G1 X47.487 Y91.643 E31.82746
G1 X48.079 Y88.522 E31.98595
G1 X48.15 Y88.195 E32.00264
G1 X48.533 Y86.628 E32.08312
G1 X48.617 Y86.318 E32.09915
G1 X49.527 Y83.269 E32.25789
G1 X49.63 Y82.954 E32.27443
G1 X50.165 Y81.45 E32.35407
G1 X50.282 Y81.147 E32.37027
G1 X51.513 Y78.173 E32.53085
G1 X51.696 Y77.771 E32.55289
G1 X53.123 Y74.902 E32.71275
G1 X53.33 Y74.519 E32.73447
G1 X54.941 Y71.767 E32.89356
G1 X55.172 Y71.401 E32.91516
G1 X56.935 Y68.809 E33.07155
G1 X57.191 Y68.458 E33.09322
G1 X59.176 Y65.927 E33.2537
G1 X59.462 Y65.588 E33.27583
G1 X61.619 Y63.199 E33.43641
G1 X61.921 Y62.886 E33.45811
G0 F3600 X62.199 Y63.174
G1 F900 X64.496 Y60.954 E33.61748
G1 X64.799 Y60.681 E33.63783
G1 X67.208 Y58.65 E33.79503
G1 X67.532 Y58.395 E33.8156
G1 X70.152 Y56.478 E33.97756
G1 X70.493 Y56.246 E33.99814
G1 X73.187 Y54.546 E34.15707
G1 X73.539 Y54.34 E34.17741
G1 X76.379 Y52.807 E34.33843
G1 X76.751 Y52.622 E34.35915
G1 X79.669 Y51.299 E34.519
G1 X79.944 Y51.183 E34.53389
G1 X81.373 Y50.619 E34.61053
G1 X81.661 Y50.514 E34.62583
G1 X84.646 Y49.509 E34.78296
G1 X85.035 Y49.392 E34.80323
G1 X88.16 Y48.57 E34.96444
G1 X88.47 Y48.498 E34.98032
G1 X90.05 Y48.171 E35.06081
G1 X90.349 Y48.116 E35.07598
G1 X93.551 Y47.621 E35.23763
G1 X93.964 Y47.572 E35.25838
G1 X97.152 Y47.303 E35.41799
G1 X97.557 Y47.283 E35.43822
G1 X100.722 Y47.231 E35.59614
G1 X101.134 Y47.238 E35.6167
G1 X104.349 Y47.406 E35.77732
G1 X104.756 Y47.441 E35.7977
G1 X107.909 Y47.822 E35.95615
G1 X108.312 Y47.885 E35.9765
G1 X111.419 Y48.477 E36.13429
G1 X111.716 Y48.541 E36.14945
G1 X113.301 Y48.927 E36.23084
G1 X113.598 Y49.008 E36.2462
G1 X116.591 Y49.902 E36.40204
G1 X116.879 Y49.996 E36.41715
G1 X118.422 Y50.543 E36.49883
G1 X118.713 Y50.655 E36.51438
G1 X121.661 Y51.876 E36.67358
G1 X122.035 Y52.046 E36.69407
G1 X124.893 Y53.466 E36.85329
G1 X125.252 Y53.66 E36.87365
G1 X128.025 Y55.282 E37.03392
G1 X128.374 Y55.502 E37.0545
G1 X131.018 Y57.303 E37.21411
G1 X131.347 Y57.544 E37.23445
G1 X133.833 Y59.497 E37.39218
G1 X134.147 Y59.762 E37.41267
G1 X136.541 Y61.924 E37.57361
G1 X136.838 Y62.211 E37.59421
G1 X139.071 Y64.525 E37.75465
G1 X139.344 Y64.828 E37.77499
G1 X141.384 Y67.252 E37.93306
G1 X141.634 Y67.571 E37.95328
G1 X143.511 Y70.135 E38.11181
G1 X143.744 Y70.476 E38.13241
G1 X145.453 Y73.183 E38.29213
G1 X145.658 Y73.535 E38.31245
G1 X147.173 Y76.34 E38.4715
G1 X147.356 Y76.709 E38.49205
G1 X148.677 Y79.616 E38.65135
G1 X148.796 Y79.896 E38.66653
G1 X149.396 Y81.417 E38.7481
G1 X149.503 Y81.709 E38.76362
G1 X150.509 Y84.704 E38.92124
G1 X150.626 Y85.097 E38.9417
G1 X151.438 Y88.204 E39.10192
G1 X151.509 Y88.505 E39.11734
G1 X151.831 Y90.061 E39.19662
G1 X151.885 Y90.36 E39.21178
G1 X152.377 Y93.543 E39.37246
G1 X152.425 Y93.952 E39.39301
G1 X152.696 Y97.139 E39.55258
G1 X152.717 Y97.546 E39.57291
G1 X152.77 Y100.683 E39.72944
G1 X152.763 Y101.09 E39.74975
G1 X152.599 Y104.297 E39.90996
G1 X152.564 Y104.708 E39.93054
G1 X152.182 Y107.881 E40.08998
G1 X152.12 Y108.282 E40.11023
G1 X151.528 Y111.403 E40.26871
G1 X151.461 Y111.71 E40.28439
G1 X151.078 Y113.277 E40.36487
G1 X150.999 Y113.568 E40.37991
G1 X150.089 Y116.617 E40.53865
G1 X149.993 Y116.912 E40.55413
G1 X149.458 Y118.416 E40.63377
G1 X149.349 Y118.7 E40.64895
G1 X148.118 Y121.674 E40.80953
G1 X147.946 Y122.051 E40.8302
G1 X146.519 Y124.92 E40.99007
G1 X146.325 Y125.279 E41.01043
G1 X144.714 Y128.031 E41.16952
G1 X144.497 Y128.374 E41.18977
G1 X142.734 Y130.966 E41.34616
G1 X142.494 Y131.295 E41.36648
G1 X140.509 Y133.826 E41.52695
G1 X140.308 Y134.069 E41.54269
G1 X139.249 Y135.282 E41.62302
G1 X139.043 Y135.506 E41.6382
G1 X136.81 Y137.816 E41.79849
G1 X136.513 Y138.103 E41.8191
G1 X134.118 Y140.262 E41.97997
G1 X133.804 Y140.526 E42.00043
G1 X131.308 Y142.484 E42.1587
G1 X130.979 Y142.724 E42.17902
G1 X128.338 Y144.52 E42.33836
G1 X127.989 Y144.74 E42.35894
G1 X125.235 Y146.348 E42.51805
G1 X124.882 Y146.539 E42.53807
G1 X122.051 Y147.947 E42.69581
G1 X121.677 Y148.118 E42.71633
G1 X118.722 Y149.343 E42.87592
G1 X118.339 Y149.486 E42.89632
G1 X115.354 Y150.491 E43.05346
G1 X114.965 Y150.608 E43.07372
G1 X111.84 Y151.43 E43.23493
