;FLAVOR:Marlin
;TIME:8948
;Filament used: 5.24384m
;Layer height: 0.1
;Generated with Cura_SteamEngine 3.3.1
M190 S100
M104 S207
M109 S207
M82 ;absolute extrusion mode
G21 ;metric values
G90 ;absolute positioning
M82 ;set extruder to absolute mode
M107 ;start with the fan off
G28 X0 Y0 ;move X/Y to min endstops
G28 Z0 ;move Z to min endstops
G1 Z15.0 F9000 ;move the platform down 15mm
G92 E0 ;zero the extruded length
G1 F200 E3 ;extrude 3mm of feed stock
G92 E0 ;zero the extruded length again
G1 F9000
;Put printing message on LCD screen
M117 Printing...
G92 E0
G1 F1500 E-2.5
;LAYER_COUNT:42
;LAYER:0
M107
G0 F3600 X63.205 Y61.379 Z0.3
;TYPE:SKIRT
G1 F1500 E0
G1 F1350 X63.54 Y61.062 E0.02301
G1 X65.94 Y58.946 E0.18264
G1 X66.301 Y58.65 E0.20593
G1 X68.813 Y56.725 E0.36382
G1 X69.185 Y56.459 E0.38664
G1 X71.786 Y54.73 E0.54246
G1 X72.177 Y54.488 E0.5654
G1 X74.922 Y52.92 E0.72311
G1 X75.227 Y52.757 E0.74037
G1 X76.657 Y52.034 E0.82031
G1 X76.977 Y51.882 E0.83798
G1 X79.867 Y50.605 E0.99561
G1 X80.287 Y50.436 E1.0182
G1 X83.221 Y49.367 E1.17399
G1 X83.661 Y49.223 E1.19709
G1 X86.719 Y48.339 E1.3559
G1 X87.165 Y48.227 E1.37884
G1 X90.252 Y47.557 E1.53644
G1 X90.603 Y47.49 E1.55427
G1 X92.209 Y47.229 E1.63544
G1 X92.549 Y47.183 E1.65256
G1 X95.671 Y46.836 E1.80928
G1 X96.132 Y46.8 E1.83234
G1 X99.291 Y46.665 E1.99009
G1 X99.752 Y46.661 E2.01309
G1 X102.925 Y46.741 E2.17144
G1 X103.386 Y46.768 E2.19448
G1 X106.493 Y47.058 E2.35017
G1 X106.947 Y47.116 E2.373
G1 X110.088 Y47.624 E2.53174
G1 X110.539 Y47.713 E2.55468
G1 X113.556 Y48.413 E2.70919
G1 X113.999 Y48.532 E2.73208
G1 X117.022 Y49.452 E2.88973
G1 X117.458 Y49.601 E2.91271
G1 X120.462 Y50.743 E3.07305
G1 X120.894 Y50.924 E3.09641
G1 X123.747 Y52.24 E3.25316
G1 X124.158 Y52.447 E3.27612
G1 X126.909 Y53.949 E3.4325
G1 X127.304 Y54.182 E3.45537
G1 X129.983 Y55.889 E3.61386
G1 X130.363 Y56.15 E3.63686
G1 X132.907 Y58.025 E3.79452
G1 X133.272 Y58.314 E3.81775
G1 X135.685 Y60.361 E3.97562
G1 X136.027 Y60.672 E3.99868
G1 X138.303 Y62.886 E4.15709
G1 X138.624 Y63.219 E4.18017
G1 X140.731 Y65.568 E4.3376
G1 X141.025 Y65.919 E4.36044
G1 X142.956 Y68.387 E4.51678
G1 X143.224 Y68.755 E4.53949
G1 X145.012 Y71.386 E4.69819
G1 X145.264 Y71.786 E4.72178
G1 X146.853 Y74.515 E4.87933
G1 X147.068 Y74.914 E4.90194
G1 X148.455 Y77.709 E5.05761
G1 X148.645 Y78.128 E5.08056
G1 X149.859 Y81.056 E5.2387
G1 X150.024 Y81.494 E5.26205
G1 X151.037 Y84.509 E5.42073
G1 X151.168 Y84.949 E5.44364
G1 X151.965 Y87.987 E5.60033
G1 X152.045 Y88.326 E5.61771
G1 X152.372 Y89.895 E5.69767
G1 X152.434 Y90.234 E5.71486
G1 X152.915 Y93.319 E5.87063
G1 X152.97 Y93.775 E5.89355
G1 X153.249 Y96.965 E6.05331
G1 X153.274 Y97.439 E6.07699
G1 X153.33 Y100.672 E6.23831
G1 X153.327 Y101.027 E6.25602
G1 X153.269 Y102.693 E6.33918
G1 X153.247 Y103.049 E6.35698
G1 X152.969 Y106.224 E6.51599
G1 X152.914 Y106.679 E6.53885
G1 X152.433 Y109.764 E6.69462
G1 X152.346 Y110.217 E6.71764
G1 X151.646 Y113.311 E6.8759
G1 X151.529 Y113.757 E6.8989
G1 X150.622 Y116.792 E7.05694
G1 X150.514 Y117.122 E7.07426
G1 X149.983 Y118.616 E7.15336
G1 X149.858 Y118.941 E7.17073
G1 X148.653 Y121.85 E7.32782
G1 X148.464 Y122.267 E7.35067
G1 X147.07 Y125.08 E7.50729
G1 X146.852 Y125.486 E7.53028
G1 X145.261 Y128.215 E7.68788
G1 X145.014 Y128.607 E7.711
G1 X143.22 Y131.252 E7.87045
G1 X142.947 Y131.625 E7.89351
G1 X141.026 Y134.08 E8.04903
G1 X140.805 Y134.349 E8.0664
G1 X139.736 Y135.58 E8.14774
G1 X139.503 Y135.835 E8.16497
G1 X137.329 Y138.095 E8.32142
G1 X136.998 Y138.417 E8.34446
G1 X134.654 Y140.544 E8.50237
G1 X134.304 Y140.84 E8.52524
G1 X131.858 Y142.776 E8.68087
G1 X131.487 Y143.05 E8.70388
G1 X128.87 Y144.847 E8.86226
G1 X128.482 Y145.095 E8.88524
G1 X125.757 Y146.706 E9.04317
G1 X125.35 Y146.928 E9.0663
G1 X122.517 Y148.352 E9.22449
G1 X122.098 Y148.545 E9.2475
G1 X119.203 Y149.762 E9.40418
G1 X118.873 Y149.891 E9.42185
G1 X117.349 Y150.44 E9.50267
G1 X117.025 Y150.547 E9.51969
G1 X114 Y151.468 E9.67745
G1 X113.554 Y151.587 E9.70048
G1 X110.538 Y152.286 E9.85494
G1 X110.089 Y152.375 E9.87777
G1 X106.949 Y152.883 E10.03646
G1 X106.495 Y152.941 E10.0593
G1 X103.388 Y153.231 E10.21498
G1 X102.927 Y153.258 E10.23802
G1 X99.753 Y153.338 E10.39642
G1 X99.292 Y153.334 E10.41942
G1 X96.133 Y153.199 E10.57717
G1 X95.672 Y153.163 E10.60024
G1 X92.55 Y152.816 E10.75696
G1 X92.09 Y152.749 E10.78015
G1 X88.94 Y152.179 E10.93985
G1 X88.6 Y152.109 E10.95717
G1 X87.055 Y151.747 E11.03634
G1 X86.718 Y151.659 E11.05372
G1 X83.663 Y150.776 E11.21237
G1 X83.225 Y150.633 E11.23536
G1 X80.289 Y149.564 E11.39124
G1 X79.864 Y149.393 E11.4141
G1 X76.975 Y148.115 E11.5717
G1 X76.561 Y147.915 E11.59464
G1 X73.769 Y146.447 E11.75202
G1 X73.365 Y146.216 E11.77523
G1 X70.687 Y144.565 E11.93219
G1 X70.302 Y144.31 E11.95523
G1 X67.695 Y142.447 E12.11509
G1 X67.328 Y142.165 E12.13818
G1 X64.912 Y140.177 E12.29427
G1 X64.568 Y139.873 E12.31718
G1 X62.268 Y137.704 E12.4749
G1 X61.943 Y137.377 E12.4979
G1 X59.81 Y135.073 E12.65455
G1 X59.51 Y134.726 E12.67743
G1 X57.513 Y132.254 E12.83597
G1 X57.233 Y131.882 E12.8592
G1 X55.417 Y129.289 E13.01714
G1 X55.164 Y128.9 E13.04029
G1 X53.538 Y126.204 E13.19736
G1 X53.315 Y125.804 E13.22021
G1 X51.86 Y122.977 E13.37884
G1 X51.662 Y122.559 E13.40191
G1 X50.419 Y119.678 E13.55845
G1 X50.289 Y119.354 E13.57587
G1 X49.729 Y117.848 E13.65603
G1 X49.617 Y117.522 E13.67323
G1 X48.68 Y114.549 E13.82874
G1 X48.557 Y114.106 E13.85168
G1 X47.81 Y111.023 E14.00994
G1 X47.717 Y110.573 E14.03287
G1 X47.181 Y107.453 E14.19081
G1 X47.118 Y106.994 E14.21392
G1 X46.796 Y103.846 E14.37179
G1 X46.765 Y103.383 E14.39494
G1 X46.658 Y100.208 E14.55344
G1 X46.658 Y99.748 E14.57638
G1 X46.765 Y96.606 E14.73323
G1 X46.796 Y96.143 E14.75638
G1 X47.119 Y92.993 E14.91436
G1 X47.182 Y92.536 E14.93738
G1 X47.716 Y89.426 E15.0948
G1 X47.782 Y89.093 E15.11174
G1 X48.118 Y87.591 E15.18853
G1 X48.173 Y87.364 E15.20018
G1 X48.584 Y85.783 E15.28168
G1 X48.679 Y85.45 E15.29896
G1 X49.616 Y82.477 E15.45447
G1 X49.771 Y82.039 E15.47765
G1 X50.936 Y79.067 E15.63691
G1 X51.118 Y78.646 E15.65979
G1 X52.459 Y75.805 E15.81653
G1 X52.67 Y75.394 E15.83958
G1 X54.21 Y72.635 E15.99721
G1 X54.449 Y72.239 E16.02029
G1 X56.169 Y69.597 E16.17757
G1 X56.432 Y69.222 E16.20042
G1 X58.324 Y66.704 E16.35756
G1 X58.614 Y66.344 E16.38062
G1 X60.687 Y63.944 E16.53884
G1 X61.001 Y63.605 E16.56189
G1 X63.205 Y61.379 E16.71817
G0 F3600 X63.489 Y61.66
G1 F1350 X63.804 Y61.362 E16.73981
G1 X66.204 Y59.246 E16.89944
G1 X66.544 Y58.967 E16.92138
G1 X69.056 Y57.042 E17.07927
G1 X69.406 Y56.792 E17.10073
G1 X72.007 Y55.063 E17.25655
G1 X72.376 Y54.836 E17.27816
G1 X75.121 Y53.268 E17.43588
G1 X75.407 Y53.114 E17.45208
G1 X76.837 Y52.391 E17.53203
G1 X77.138 Y52.248 E17.54865
G1 X80.028 Y50.971 E17.70628
G1 X80.424 Y50.812 E17.72757
G1 X83.358 Y49.743 E17.88336
G1 X83.772 Y49.608 E17.90509
G1 X86.83 Y48.724 E18.0639
G1 X87.25 Y48.618 E18.08551
G1 X90.337 Y47.948 E18.24311
G1 X90.667 Y47.885 E18.25987
G1 X92.273 Y47.624 E18.34104
G1 X92.593 Y47.58 E18.35716
G1 X95.715 Y47.233 E18.51387
G1 X96.149 Y47.2 E18.53559
G1 X99.308 Y47.065 E18.69334
G1 X99.742 Y47.061 E18.71499
G1 X102.915 Y47.141 E18.87334
G1 X103.349 Y47.167 E18.89503
G1 X106.456 Y47.457 E19.05072
G1 X106.883 Y47.511 E19.07219
G1 X110.024 Y48.019 E19.23093
G1 X110.448 Y48.103 E19.25249
G1 X113.465 Y48.803 E19.40701
G1 X113.882 Y48.914 E19.42854
G1 X116.905 Y49.834 E19.58619
G1 X117.316 Y49.975 E19.60787
G1 X120.32 Y51.117 E19.7682
G1 X120.727 Y51.287 E19.79021
G1 X123.58 Y52.603 E19.94695
G1 X123.966 Y52.798 E19.96853
G1 X126.717 Y54.3 E20.1249
G1 X127.089 Y54.52 E20.14646
G1 X129.768 Y56.227 E20.30495
G1 X130.126 Y56.472 E20.32659
G1 X132.67 Y58.347 E20.48426
G1 X133.013 Y58.619 E20.5061
G1 X135.426 Y60.666 E20.66396
G1 X135.749 Y60.958 E20.68569
G1 X138.025 Y63.172 E20.8441
G1 X138.326 Y63.487 E20.86584
G1 X140.433 Y65.836 E21.02327
G1 X140.71 Y66.165 E21.04472
G1 X142.641 Y68.633 E21.20106
G1 X142.893 Y68.98 E21.22246
G1 X144.681 Y71.611 E21.38116
G1 X144.919 Y71.988 E21.4034
G1 X146.508 Y74.717 E21.56095
G1 X146.71 Y75.092 E21.5822
G1 X148.097 Y77.887 E21.73787
G1 X148.276 Y78.281 E21.75946
G1 X149.49 Y81.209 E21.9176
G1 X149.645 Y81.622 E21.93961
G1 X150.658 Y84.637 E22.09829
G1 X150.782 Y85.051 E22.11985
G1 X151.579 Y88.089 E22.27654
G1 X151.653 Y88.407 E22.29283
G1 X151.98 Y89.976 E22.37279
G1 X152.039 Y90.296 E22.38903
G1 X152.52 Y93.381 E22.5448
G1 X152.572 Y93.809 E22.56631
G1 X152.851 Y96.999 E22.72607
G1 X152.874 Y97.446 E22.7484
G1 X152.93 Y100.679 E22.90971
G1 X152.927 Y101.013 E22.92638
G1 X152.869 Y102.679 E23.00955
G1 X152.849 Y103.014 E23.02629
G1 X152.571 Y106.189 E23.1853
G1 X152.519 Y106.617 E23.20681
G1 X152.038 Y109.702 E23.36258
G1 X151.956 Y110.128 E23.38422
G1 X151.256 Y113.222 E23.54248
G1 X151.146 Y113.643 E23.56419
G1 X150.239 Y116.678 E23.72223
G1 X150.137 Y116.988 E23.73851
G1 X149.606 Y118.482 E23.81761
G1 X149.489 Y118.788 E23.83395
G1 X148.284 Y121.697 E23.99104
G1 X148.105 Y122.09 E24.01259
G1 X146.711 Y124.903 E24.16922
G1 X146.506 Y125.284 E24.1908
G1 X144.915 Y128.013 E24.3484
G1 X144.683 Y128.382 E24.37015
G1 X142.889 Y131.027 E24.5296
G1 X142.632 Y131.379 E24.55134
G1 X140.711 Y133.834 E24.70686
G1 X140.503 Y134.086 E24.72316
G1 X139.434 Y135.317 E24.8045
G1 X139.214 Y135.558 E24.82078
G1 X137.04 Y137.818 E24.97723
G1 X136.729 Y138.121 E24.99889
G1 X134.385 Y140.248 E25.15681
G1 X134.056 Y140.526 E25.1783
G1 X131.61 Y142.462 E25.33393
G1 X131.261 Y142.72 E25.35558
G1 X128.644 Y144.517 E25.51396
G1 X128.278 Y144.75 E25.53561
G1 X125.553 Y146.361 E25.69354
G1 X125.17 Y146.57 E25.7153
G1 X122.337 Y147.994 E25.87349
G1 X121.943 Y148.176 E25.89515
G1 X119.048 Y149.393 E26.05182
G1 X118.737 Y149.514 E26.06847
G1 X117.213 Y150.063 E26.14929
G1 X116.908 Y150.165 E26.16533
G1 X113.883 Y151.086 E26.32309
G1 X113.464 Y151.198 E26.34473
G1 X110.448 Y151.897 E26.49918
G1 X110.025 Y151.98 E26.52069
G1 X106.885 Y152.488 E26.67938
G1 X106.458 Y152.542 E26.70086
G1 X103.351 Y152.832 E26.85654
G1 X102.917 Y152.858 E26.87823
G1 X99.743 Y152.938 E27.03663
G1 X99.309 Y152.934 E27.05828
G1 X96.15 Y152.799 E27.21603
G1 X95.716 Y152.766 E27.23775
G1 X92.594 Y152.419 E27.39446
G1 X92.161 Y152.356 E27.41629
G1 X89.011 Y151.786 E27.576
G1 X88.691 Y151.719 E27.59231
G1 X87.146 Y151.357 E27.67148
G1 X86.829 Y151.274 E27.68783
G1 X83.774 Y150.391 E27.84648
G1 X83.361 Y150.257 E27.86814
G1 X80.425 Y149.188 E28.02403
G1 X80.026 Y149.027 E28.04549
G1 X77.137 Y147.749 E28.2031
G1 X76.748 Y147.561 E28.22465
G1 X73.956 Y146.093 E28.38203
G1 X73.575 Y145.876 E28.4039
G1 X70.897 Y144.225 E28.56086
G1 X70.535 Y143.984 E28.58255
G1 X67.928 Y142.121 E28.74241
G1 X67.582 Y141.856 E28.76416
G1 X65.166 Y139.868 E28.92025
G1 X64.842 Y139.582 E28.94181
G1 X62.542 Y137.413 E29.09954
G1 X62.237 Y137.105 E29.12116
G1 X60.104 Y134.801 E29.27781
G1 X59.822 Y134.475 E29.29931
G1 X57.825 Y132.003 E29.45786
G1 X57.561 Y131.652 E29.47977
G1 X55.745 Y129.059 E29.6377
G1 X55.507 Y128.693 E29.65948
G1 X53.881 Y125.997 E29.81656
G1 X53.67 Y125.621 E29.83807
G1 X52.215 Y122.794 E29.99669
G1 X52.03 Y122.4 E30.01841
G1 X50.787 Y119.519 E30.17495
G1 X50.664 Y119.215 E30.19131
G1 X50.104 Y117.709 E30.27147
G1 X49.999 Y117.402 E30.28766
G1 X49.062 Y114.429 E30.44317
G1 X48.946 Y114.012 E30.46477
G1 X48.199 Y110.929 E30.62303
G1 X48.111 Y110.506 E30.64459
G1 X47.575 Y107.386 E30.80252
G1 X47.516 Y106.953 E30.82433
G1 X47.194 Y103.805 E30.9822
G1 X47.165 Y103.37 E31.00395
G1 X47.058 Y100.195 E31.16244
G1 X47.058 Y99.761 E31.18409
G1 X47.165 Y96.619 E31.34094
G1 X47.194 Y96.184 E31.36269
G1 X47.517 Y93.034 E31.52067
G1 X47.576 Y92.604 E31.54232
G1 X48.11 Y89.494 E31.69975
G1 X48.172 Y89.18 E31.71572
G1 X48.508 Y87.678 E31.79251
G1 X48.56 Y87.465 E31.80344
G1 X48.971 Y85.884 E31.88494
G1 X49.061 Y85.57 E31.90124
G1 X49.998 Y82.597 E32.05675
G1 X50.143 Y82.185 E32.07855
G1 X51.308 Y79.213 E32.2378
G1 X51.479 Y78.817 E32.25932
G1 X52.82 Y75.976 E32.41606
G1 X53.02 Y75.589 E32.43779
G1 X54.56 Y72.83 E32.59543
G1 X54.784 Y72.457 E32.61714
G1 X56.504 Y69.815 E32.77442
G1 X56.751 Y69.462 E32.79591
G1 X58.643 Y66.944 E32.95305
G1 X58.917 Y66.606 E32.97475
G1 X60.99 Y64.206 E33.13297
G1 X61.285 Y63.886 E33.15469
G1 X63.489 Y61.66 E33.31097
G0 F3600 X63.773 Y61.941
G1 F1350 X64.069 Y61.662 E33.33126
G1 X66.469 Y59.546 E33.49089
G1 X66.787 Y59.285 E33.51141
G1 X69.299 Y57.36 E33.66931
G1 X69.627 Y57.125 E33.68944
G1 X72.228 Y55.396 E33.84526
G1 X72.574 Y55.183 E33.86553
G1 X75.319 Y53.615 E34.02324
G1 X75.588 Y53.47 E34.03849
G1 X77.018 Y52.747 E34.11843
G1 X77.3 Y52.614 E34.13399
G1 X80.19 Y51.337 E34.29162
G1 X80.561 Y51.188 E34.31156
G1 X83.495 Y50.119 E34.46736
G1 X83.883 Y49.992 E34.48772
G1 X86.941 Y49.108 E34.64653
G1 X87.334 Y49.009 E34.66675
G1 X90.421 Y48.339 E34.82435
G1 X90.732 Y48.28 E34.84014
G1 X92.338 Y48.019 E34.92132
G1 X92.637 Y47.978 E34.93637
G1 X95.759 Y47.631 E35.09309
G1 X96.166 Y47.599 E35.11346
G1 X99.325 Y47.464 E35.27121
G1 X99.732 Y47.461 E35.29151
G1 X102.905 Y47.541 E35.44986
G1 X103.312 Y47.565 E35.4702
G1 X106.419 Y47.855 E35.62589
G1 X106.819 Y47.906 E35.646
G1 X109.96 Y48.414 E35.80475
G1 X110.358 Y48.492 E35.82498
G1 X113.375 Y49.192 E35.9795
G1 X113.766 Y49.297 E35.9997
G1 X116.789 Y50.217 E36.15734
G1 X117.174 Y50.349 E36.17765
G1 X120.178 Y51.491 E36.33798
G1 X120.559 Y51.651 E36.3586
G1 X123.412 Y52.967 E36.51535
G1 X123.774 Y53.149 E36.53556
G1 X126.525 Y54.651 E36.69193
G1 X126.874 Y54.857 E36.71215
G1 X129.553 Y56.564 E36.87064
G1 X129.889 Y56.794 E36.89095
G1 X132.433 Y58.669 E37.04862
G1 X132.754 Y58.924 E37.06907
G1 X135.167 Y60.971 E37.22694
G1 X135.47 Y61.245 E37.24732
G1 X137.746 Y63.459 E37.40573
G1 X138.028 Y63.754 E37.42609
G1 X140.135 Y66.103 E37.58352
G1 X140.394 Y66.412 E37.60364
G1 X142.325 Y68.88 E37.75998
G1 X142.563 Y69.205 E37.78007
G1 X144.351 Y71.836 E37.93878
G1 X144.573 Y72.189 E37.95958
G1 X146.162 Y74.918 E38.11713
G1 X146.352 Y75.27 E38.13708
G1 X147.739 Y78.065 E38.29275
G1 X147.906 Y78.434 E38.31296
G1 X149.12 Y81.362 E38.4711
G1 X149.266 Y81.749 E38.49173
G1 X150.279 Y84.764 E38.65042
G1 X150.395 Y85.152 E38.67062
G1 X151.192 Y88.19 E38.82731
G1 X151.262 Y88.489 E38.84264
G1 X151.589 Y90.058 E38.92259
G1 X151.643 Y90.358 E38.9378
G1 X152.124 Y93.443 E39.09357
G1 X152.173 Y93.844 E39.11373
G1 X152.452 Y97.034 E39.27349
G1 X152.474 Y97.453 E39.29442
G1 X152.53 Y100.686 E39.45574
G1 X152.527 Y100.999 E39.47135
G1 X152.469 Y102.665 E39.55452
G1 X152.45 Y102.979 E39.57022
G1 X152.172 Y106.154 E39.72922
G1 X152.123 Y106.555 E39.74938
G1 X151.642 Y109.64 E39.90515
G1 X151.566 Y110.04 E39.92546
G1 X150.866 Y113.134 E40.08372
G1 X150.763 Y113.528 E40.10404
G1 X149.856 Y116.563 E40.26207
G1 X149.761 Y116.854 E40.27735
G1 X149.23 Y118.348 E40.35645
G1 X149.119 Y118.635 E40.3718
G1 X147.914 Y121.544 E40.52889
G1 X147.747 Y121.912 E40.54905
G1 X146.353 Y124.725 E40.70568
G1 X146.16 Y125.083 E40.72597
G1 X144.569 Y127.812 E40.88357
G1 X144.352 Y128.158 E40.90395
G1 X142.558 Y130.803 E41.0634
G1 X142.317 Y131.132 E41.08374
G1 X140.396 Y133.587 E41.23926
G1 X140.201 Y133.824 E41.25457
G1 X139.132 Y135.055 E41.33591
G1 X138.926 Y135.281 E41.35117
G1 X136.752 Y137.541 E41.50762
G1 X136.46 Y137.824 E41.52791
G1 X134.116 Y139.951 E41.68582
G1 X133.808 Y140.213 E41.70599
G1 X131.362 Y142.149 E41.86163
G1 X131.034 Y142.39 E41.88193
G1 X128.417 Y144.187 E42.04031
G1 X128.074 Y144.406 E42.06061
G1 X125.349 Y146.017 E42.21855
G1 X124.991 Y146.213 E42.23891
G1 X122.158 Y147.637 E42.3971
G1 X121.788 Y147.807 E42.41741
G1 X118.893 Y149.024 E42.57409
G1 X118.601 Y149.138 E42.58973
G1 X117.077 Y149.687 E42.67054
G1 X116.792 Y149.782 E42.68553
G1 X113.767 Y150.703 E42.84329
G1 X113.374 Y150.808 E42.86358
G1 X110.358 Y151.507 E43.01804
G1 X109.961 Y151.585 E43.03822
G1 X106.821 Y152.093 E43.19692
G1 X106.421 Y152.144 E43.21703
G1 X103.314 Y152.434 E43.37272
G1 X102.907 Y152.458 E43.39306
G1 X99.733 Y152.538 E43.55146
G1 X99.326 Y152.535 E43.57177
G1 X96.167 Y152.4 E43.72951
G1 X95.76 Y152.368 E43.74988
