;FLAVOR:Marlin
;TIME:1895
;Filament used: 1.83443m
;Layer height: 0.15
;Generated with Cura_SteamEngine 3.3.1
M190 S30
M104 S207
M109 S207
M82 ;absolute extrusion mode
G21 ;metric values
G90 ;absolute positioning
M82 ;set extruder to absolute mode
M107 ;start with the fan off
G28 X0 Y0 ;move X/Y to min endstops
G28 Z0 ;move Z to min endstops
G1 Z15.0 F9000 ;move the platform down 15mm
G92 E0 ;zero the extruded length
G1 F200 E3 ;extrude 3mm of feed stock
G92 E0 ;zero the extruded length again
G1 F9000
;Put printing message on LCD screen
M117 Printing...
G92 E0
G1 F1500 E-2.5
;LAYER_COUNT:116
;LAYER:0
M107
G0 F3600 X83.35 Y84.435 Z0.3
;TYPE:SKIRT
G1 F1500 E0
G1 F2100 X84.46 Y83.327 E0.07825
G1 X85.065 Y82.782 E0.11887
G1 X86.289 Y81.792 E0.19741
G1 X87.071 Y81.236 E0.24528
G1 X88.852 Y80.127 E0.34995
G1 X89.81 Y79.619 E0.40405
G1 X91.72 Y78.771 E0.50831
G1 X92.74 Y78.401 E0.56244
G1 X94.754 Y77.825 E0.66695
G1 X95.823 Y77.599 E0.72146
G1 X97.89 Y77.311 E0.82558
G1 X98.977 Y77.236 E0.87994
G1 X101.073 Y77.239 E0.98451
G1 X102.154 Y77.316 E1.03858
G1 X104.22 Y77.608 E1.14268
G1 X105.145 Y77.796 E1.18977
G1 X106.662 Y78.202 E1.26812
G1 X107.57 Y78.506 E1.31589
G1 X109.513 Y79.292 E1.42046
G1 X110.501 Y79.775 E1.47532
G1 X112.31 Y80.824 E1.57965
G1 X113.2 Y81.426 E1.63326
G1 X114.847 Y82.713 E1.73754
G1 X115.661 Y83.447 E1.79222
G1 X117.114 Y84.955 E1.89669
G1 X117.81 Y85.785 E1.95074
G1 X119.038 Y87.477 E2.05504
G1 X119.613 Y88.398 E2.10921
G1 X120.593 Y90.242 E2.21339
G1 X121.036 Y91.24 E2.26787
G1 X121.752 Y93.211 E2.37249
G1 X122.051 Y94.253 E2.42657
G1 X122.485 Y96.296 E2.53077
G1 X122.636 Y97.377 E2.58522
G1 X122.781 Y99.467 E2.68975
G1 X122.78 Y100.56 E2.74428
G1 X122.631 Y102.658 E2.84921
G1 X122.508 Y103.594 E2.89631
G1 X122.209 Y105.132 E2.97448
G1 X121.967 Y106.064 E3.02252
G1 X121.319 Y108.049 E3.12669
G1 X120.911 Y109.054 E3.1808
G1 X119.987 Y110.944 E3.28576
G1 X119.438 Y111.892 E3.34042
G1 X118.259 Y113.633 E3.44532
G1 X117.771 Y114.279 E3.48571
G1 X117.11 Y115.065 E3.53695
G1 X116.65 Y115.565 E3.57084
G1 X115.54 Y116.673 E3.64909
G1 X114.935 Y117.218 E3.68971
G1 X113.711 Y118.208 E3.76825
G1 X112.929 Y118.764 E3.81612
G1 X111.148 Y119.873 E3.9208
G1 X110.19 Y120.381 E3.97489
G1 X108.28 Y121.229 E4.07915
G1 X107.26 Y121.599 E4.13329
G1 X105.246 Y122.175 E4.23779
G1 X104.177 Y122.401 E4.29231
G1 X102.11 Y122.689 E4.39642
G1 X101.023 Y122.764 E4.45078
G1 X98.927 Y122.761 E4.55535
G1 X97.846 Y122.684 E4.60942
G1 X95.78 Y122.392 E4.71352
G1 X94.855 Y122.204 E4.76061
G1 X93.338 Y121.798 E4.83896
G1 X92.43 Y121.494 E4.88673
G1 X90.487 Y120.708 E4.9913
G1 X89.502 Y120.226 E5.04601
G1 X87.686 Y119.174 E5.15071
G1 X86.787 Y118.566 E5.20486
G1 X85.146 Y117.281 E5.30884
G1 X84.435 Y116.65 E5.35627
G1 X83.327 Y115.54 E5.43452
G1 X82.782 Y114.935 E5.47514
G1 X81.792 Y113.711 E5.55368
G1 X81.236 Y112.93 E5.60151
G1 X80.126 Y111.148 E5.70625
G1 X79.617 Y110.186 E5.76055
G1 X78.769 Y108.274 E5.8649
G1 X78.4 Y107.257 E5.91887
G1 X77.825 Y105.247 E6.02318
G1 X77.599 Y104.178 E6.07769
G1 X77.311 Y102.11 E6.18186
G1 X77.236 Y101.023 E6.23622
G1 X77.239 Y98.927 E6.34079
G1 X77.316 Y97.846 E6.39485
G1 X77.608 Y95.78 E6.49895
G1 X77.796 Y94.855 E6.54604
G1 X78.202 Y93.338 E6.62439
G1 X78.507 Y92.429 E6.67223
G1 X79.293 Y90.487 E6.77675
G1 X79.642 Y89.74 E6.81788
G1 X80.139 Y88.809 E6.87053
G1 X80.562 Y88.108 E6.91138
G1 X81.741 Y86.367 E7.01628
G1 X82.229 Y85.721 E7.05667
G1 X82.89 Y84.935 E7.10791
G1 X83.35 Y84.435 E7.14181
G0 F3600 X83.632 Y84.718
G1 F2100 X84.742 Y83.61 E7.22005
G1 X85.316 Y83.093 E7.25859
G1 X86.54 Y82.103 E7.33713
G1 X87.282 Y81.575 E7.38257
G1 X89.063 Y80.466 E7.48724
G1 X89.972 Y79.985 E7.53855
G1 X91.882 Y79.137 E7.64281
G1 X92.85 Y78.785 E7.6942
G1 X94.864 Y78.209 E7.7987
G1 X95.878 Y77.995 E7.85041
G1 X97.945 Y77.707 E7.95452
G1 X98.977 Y77.636 E8.00613
G1 X101.073 Y77.639 E8.1107
G1 X102.098 Y77.712 E8.16197
G1 X104.164 Y78.004 E8.26607
G1 X105.041 Y78.183 E8.31072
G1 X106.558 Y78.589 E8.38907
G1 X107.42 Y78.877 E8.43441
G1 X109.363 Y79.663 E8.53898
G1 X110.3 Y80.121 E8.59101
G1 X112.109 Y81.17 E8.69534
G1 X112.953 Y81.741 E8.74618
G1 X114.6 Y83.028 E8.85046
G1 X115.373 Y83.724 E8.90235
G1 X116.826 Y85.232 E9.00683
G1 X117.486 Y86.02 E9.05811
G1 X118.714 Y87.712 E9.16241
G1 X119.26 Y88.586 E9.21383
G1 X120.24 Y90.43 E9.31801
G1 X120.66 Y91.376 E9.36965
G1 X121.376 Y93.347 E9.47427
G1 X121.659 Y94.336 E9.52559
G1 X122.093 Y96.379 E9.62979
G1 X122.237 Y97.405 E9.68148
G1 X122.382 Y99.495 E9.786
G1 X122.381 Y100.531 E9.83769
G1 X122.232 Y102.629 E9.94262
G1 X122.115 Y103.517 E9.98731
G1 X121.816 Y105.055 E10.06547
G1 X121.587 Y105.939 E10.11103
G1 X120.939 Y107.924 E10.21521
G1 X120.552 Y108.878 E10.26657
G1 X119.628 Y110.768 E10.37153
G1 X119.107 Y111.667 E10.42337
G1 X117.928 Y113.408 E10.52827
G1 X117.465 Y114.022 E10.56663
G1 X116.804 Y114.808 E10.61787
G1 X116.368 Y115.282 E10.65
G1 X115.258 Y116.39 E10.72825
G1 X114.684 Y116.907 E10.76679
G1 X113.46 Y117.897 E10.84533
G1 X112.718 Y118.425 E10.89076
G1 X110.937 Y119.534 E10.99544
G1 X110.028 Y120.015 E11.04674
G1 X108.118 Y120.863 E11.151
G1 X107.15 Y121.215 E11.20239
G1 X105.136 Y121.791 E11.3069
G1 X104.122 Y122.005 E11.3586
G1 X102.055 Y122.293 E11.46272
G1 X101.023 Y122.364 E11.51433
G1 X98.927 Y122.361 E11.6189
G1 X97.902 Y122.288 E11.67017
G1 X95.836 Y121.996 E11.77426
G1 X94.959 Y121.817 E11.81892
G1 X93.442 Y121.411 E11.89727
G1 X92.58 Y121.123 E11.94261
G1 X90.637 Y120.337 E12.04718
G1 X89.703 Y119.88 E12.09905
G1 X87.887 Y118.828 E12.20376
G1 X87.034 Y118.251 E12.25514
G1 X85.393 Y116.966 E12.35912
G1 X84.718 Y116.368 E12.40411
G1 X83.61 Y115.258 E12.48236
G1 X83.093 Y114.684 E12.5209
G1 X82.103 Y113.46 E12.59944
G1 X81.576 Y112.718 E12.64484
G1 X80.466 Y110.936 E12.74958
G1 X79.982 Y110.024 E12.80109
G1 X79.134 Y108.112 E12.90544
G1 X78.784 Y107.147 E12.95666
G1 X78.209 Y105.137 E13.06096
G1 X77.995 Y104.123 E13.11266
G1 X77.707 Y102.055 E13.21683
G1 X77.636 Y101.023 E13.26844
G1 X77.639 Y98.927 E13.37301
G1 X77.712 Y97.902 E13.42428
G1 X78.004 Y95.836 E13.52837
G1 X78.183 Y94.959 E13.57303
G1 X78.589 Y93.442 E13.65138
G1 X78.878 Y92.579 E13.69678
G1 X79.664 Y90.637 E13.8013
G1 X79.995 Y89.928 E13.84034
G1 X80.492 Y88.997 E13.89299
G1 X80.893 Y88.333 E13.93169
G1 X82.072 Y86.592 E14.03659
G1 X82.535 Y85.978 E14.07496
G1 X83.196 Y85.192 E14.12619
G1 X83.632 Y84.718 E14.15833
G0 F3600 X83.915 Y85.001
G1 F2100 X85.025 Y83.893 E14.23657
G1 X85.568 Y83.404 E14.27303
G1 X86.792 Y82.414 E14.35157
G1 X87.494 Y81.915 E14.39454
G1 X89.275 Y80.806 E14.49921
G1 X90.135 Y80.35 E14.54777
G1 X92.045 Y79.502 E14.65203
G1 X92.96 Y79.17 E14.7006
G1 X94.974 Y78.594 E14.8051
G1 X95.933 Y78.391 E14.85401
G1 X98 Y78.103 E14.95813
G1 X98.976 Y78.036 E15.00693
G1 X101.072 Y78.039 E15.1115
G1 X102.042 Y78.108 E15.16002
G1 X104.108 Y78.4 E15.26412
G1 X104.938 Y78.569 E15.30638
G1 X106.455 Y78.975 E15.38472
G1 X107.27 Y79.248 E15.4276
G1 X109.213 Y80.034 E15.53217
G1 X110.099 Y80.467 E15.58137
G1 X111.908 Y81.516 E15.6857
G1 X112.707 Y82.056 E15.73381
G1 X114.354 Y83.343 E15.83809
G1 X115.085 Y84.002 E15.88719
G1 X116.538 Y85.51 E15.99167
G1 X117.162 Y86.255 E16.04015
G1 X118.39 Y87.947 E16.14446
G1 X118.906 Y88.774 E16.19309
G1 X119.886 Y90.618 E16.29727
G1 X120.284 Y91.513 E16.34614
G1 X121 Y93.484 E16.45076
G1 X121.268 Y94.419 E16.49928
G1 X121.702 Y96.462 E16.60348
G1 X121.838 Y97.433 E16.6524
G1 X121.983 Y99.523 E16.75692
G1 X121.982 Y100.503 E16.80581
G1 X121.833 Y102.601 E16.91075
G1 X121.722 Y103.441 E16.95302
G1 X121.423 Y104.979 E17.03119
G1 X121.206 Y105.815 E17.07428
G1 X120.558 Y107.8 E17.17845
G1 X120.193 Y108.702 E17.227
G1 X119.269 Y110.592 E17.33196
G1 X118.776 Y111.443 E17.38102
G1 X117.597 Y113.184 E17.48592
G1 X117.158 Y113.764 E17.52221
G1 X116.497 Y114.55 E17.57345
G1 X116.085 Y114.999 E17.60385
G1 X114.975 Y116.107 E17.6821
G1 X114.432 Y116.596 E17.71856
G1 X113.208 Y117.586 E17.7971
G1 X112.506 Y118.085 E17.84007
G1 X110.725 Y119.194 E17.94474
G1 X109.865 Y119.65 E17.9933
G1 X107.955 Y120.498 E18.09756
G1 X107.04 Y120.83 E18.14612
G1 X105.026 Y121.406 E18.25063
G1 X104.067 Y121.609 E18.29954
G1 X102 Y121.897 E18.40366
G1 X101.024 Y121.964 E18.45246
G1 X98.928 Y121.961 E18.55703
G1 X97.958 Y121.892 E18.60555
G1 X95.892 Y121.6 E18.70965
G1 X95.062 Y121.431 E18.7519
G1 X93.545 Y121.025 E18.83025
G1 X92.73 Y120.752 E18.87313
G1 X90.787 Y119.966 E18.9777
G1 X89.903 Y119.534 E19.02679
G1 X88.087 Y118.482 E19.13149
G1 X87.28 Y117.936 E19.1801
G1 X85.639 Y116.651 E19.28409
G1 X85.001 Y116.085 E19.32664
G1 X83.893 Y114.975 E19.40488
G1 X83.404 Y114.432 E19.44134
G1 X82.414 Y113.208 E19.51988
G1 X81.915 Y112.507 E19.56281
G1 X80.805 Y110.725 E19.66755
G1 X80.348 Y109.862 E19.71627
G1 X79.5 Y107.95 E19.82062
G1 X79.169 Y107.037 E19.86907
G1 X78.594 Y105.027 E19.97337
G1 X78.391 Y104.068 E20.02228
G1 X78.103 Y102 E20.12645
G1 X78.036 Y101.024 E20.17525
G1 X78.039 Y98.928 E20.27982
G1 X78.108 Y97.958 E20.32834
G1 X78.4 Y95.892 E20.43244
G1 X78.569 Y95.062 E20.4747
G1 X78.975 Y93.545 E20.55304
G1 X79.248 Y92.729 E20.59597
G1 X80.034 Y90.787 E20.70049
G1 X80.348 Y90.116 E20.73745
G1 X80.845 Y89.185 E20.7901
G1 X81.224 Y88.557 E20.8267
G1 X82.403 Y86.816 E20.9316
G1 X82.842 Y86.236 E20.96789
G1 X83.503 Y85.45 E21.01913
G1 X83.915 Y85.001 E21.04953
G0 F3600 X84.197 Y85.284
G1 F2100 X85.307 Y84.176 E21.12778
G1 X85.819 Y83.715 E21.16215
G1 X87.043 Y82.725 E21.24069
G1 X87.705 Y82.254 E21.28122
G1 X89.486 Y81.145 E21.38589
G1 X90.297 Y80.716 E21.43167
G1 X92.207 Y79.868 E21.53593
G1 X93.07 Y79.554 E21.58174
G1 X95.084 Y78.978 E21.68625
G1 X95.988 Y78.787 E21.73235
G1 X98.055 Y78.499 E21.83647
G1 X98.975 Y78.436 E21.88247
G1 X101.071 Y78.439 E21.98704
G1 X101.986 Y78.504 E22.03281
G1 X104.052 Y78.796 E22.13691
G1 X104.834 Y78.955 E22.17672
G1 X106.351 Y79.361 E22.25507
G1 X107.12 Y79.619 E22.29553
G1 X109.063 Y80.405 E22.4001
G1 X109.899 Y80.813 E22.44651
G1 X111.708 Y81.862 E22.55084
G1 X112.461 Y82.371 E22.59618
G1 X114.108 Y83.658 E22.70046
G1 X114.797 Y84.28 E22.74677
G1 X116.25 Y85.788 E22.85125
G1 X116.838 Y86.49 E22.89693
G1 X118.066 Y88.182 E23.00124
G1 X118.553 Y88.962 E23.04711
G1 X119.533 Y90.806 E23.1513
G1 X119.908 Y91.65 E23.19737
G1 X120.624 Y93.621 E23.30199
G1 X120.877 Y94.503 E23.34777
G1 X121.311 Y96.546 E23.45197
G1 X121.439 Y97.46 E23.49802
G1 X121.584 Y99.55 E23.60254
G1 X121.583 Y100.475 E23.64869
G1 X121.434 Y102.573 E23.75362
G1 X121.33 Y103.365 E23.79347
G1 X121.031 Y104.903 E23.87164
G1 X120.826 Y105.691 E23.91226
G1 X120.178 Y107.676 E24.01644
G1 X119.833 Y108.527 E24.06225
G1 X118.909 Y110.417 E24.16721
G1 X118.445 Y111.219 E24.21343
G1 X117.266 Y112.96 E24.31833
G1 X116.852 Y113.507 E24.35256
G1 X116.191 Y114.293 E24.4038
G1 X115.803 Y114.716 E24.43243
G1 X114.693 Y115.824 E24.51068
G1 X114.181 Y116.285 E24.54505
G1 X112.957 Y117.275 E24.62359
G1 X112.295 Y117.746 E24.66413
G1 X110.514 Y118.855 E24.7688
G1 X109.703 Y119.284 E24.81457
G1 X107.793 Y120.132 E24.91883
G1 X106.93 Y120.446 E24.96465
G1 X104.916 Y121.022 E25.06915
G1 X104.012 Y121.213 E25.11525
G1 X101.945 Y121.501 E25.21937
G1 X101.025 Y121.564 E25.26538
G1 X98.929 Y121.561 E25.36995
G1 X98.014 Y121.496 E25.41571
G1 X95.948 Y121.204 E25.51981
G1 X95.166 Y121.045 E25.55962
G1 X93.649 Y120.639 E25.63797
G1 X92.88 Y120.381 E25.67844
G1 X90.937 Y119.595 E25.783
G1 X90.104 Y119.188 E25.82926
G1 X88.288 Y118.136 E25.93396
G1 X87.527 Y117.621 E25.97981
G1 X85.886 Y116.336 E26.08379
G1 X85.284 Y115.803 E26.1239
G1 X84.176 Y114.693 E26.20215
G1 X83.715 Y114.181 E26.23652
G1 X82.725 Y112.957 E26.31506
G1 X82.255 Y112.296 E26.35553
G1 X81.145 Y110.514 E26.46027
G1 X80.714 Y109.7 E26.50622
G1 X79.866 Y107.788 E26.61057
G1 X79.554 Y106.927 E26.65626
G1 X78.979 Y104.917 E26.76056
G1 X78.787 Y104.012 E26.80672
G1 X78.499 Y101.944 E26.91088
G1 X78.436 Y101.025 E26.95684
G1 X78.439 Y98.929 E27.06141
G1 X78.504 Y98.014 E27.10718
G1 X78.796 Y95.948 E27.21127
G1 X78.955 Y95.166 E27.25109
G1 X79.361 Y93.649 E27.32943
G1 X79.619 Y92.879 E27.36995
G1 X80.405 Y90.937 E27.47447
G1 X80.701 Y90.305 E27.50929
G1 X81.198 Y89.374 E27.56194
G1 X81.555 Y88.781 E27.59647
G1 X82.734 Y87.04 E27.70137
G1 X83.148 Y86.493 E27.7356
G1 X83.809 Y85.707 E27.78683
G1 X84.197 Y85.284 E27.81547
G0 F3600 X84.48 Y85.567
G1 F2100 X85.59 Y84.459 E27.89372
G1 X86.071 Y84.026 E27.926
G1 X87.295 Y83.036 E28.00454
G1 X87.917 Y82.594 E28.04261
G1 X89.698 Y81.485 E28.14729
G1 X90.459 Y81.081 E28.19027
G1 X92.369 Y80.233 E28.29453
G1 X93.18 Y79.939 E28.33757
G1 X95.194 Y79.363 E28.44208
G1 X96.043 Y79.183 E28.48537
G1 X98.11 Y78.895 E28.58949
G1 X98.975 Y78.836 E28.63275
G1 X101.071 Y78.839 E28.73732
G1 X101.93 Y78.9 E28.78028
G1 X103.996 Y79.192 E28.88438
G1 X104.731 Y79.342 E28.9218
G1 X106.248 Y79.748 E29.00015
G1 X106.97 Y79.989 E29.03813
G1 X108.913 Y80.775 E29.14269
G1 X109.698 Y81.16 E29.18631
G1 X111.507 Y82.209 E29.29064
G1 X112.215 Y82.687 E29.33326
G1 X113.862 Y83.974 E29.43754
G1 X114.509 Y84.557 E29.48099
G1 X115.962 Y86.065 E29.58547
G1 X116.515 Y86.725 E29.62843
G1 X117.743 Y88.417 E29.73273
G1 X118.2 Y89.149 E29.77578
G1 X119.18 Y90.993 E29.87996
G1 X119.532 Y91.786 E29.92325
G1 X120.248 Y93.757 E30.02787
G1 X120.486 Y94.586 E30.0709
G1 X120.92 Y96.629 E30.1751
G1 X121.04 Y97.488 E30.21837
G1 X121.185 Y99.578 E30.32289
G1 X121.184 Y100.446 E30.3662
G1 X121.035 Y102.544 E30.47113
G1 X120.937 Y103.288 E30.50857
G1 X120.638 Y104.826 E30.58674
G1 X120.446 Y105.567 E30.62493
G1 X119.798 Y107.552 E30.7291
G1 X119.474 Y108.351 E30.77212
G1 X118.55 Y110.241 E30.87708
G1 X118.114 Y110.994 E30.92049
G1 X116.935 Y112.735 E31.02539
G1 X116.546 Y113.249 E31.05755
G1 X115.885 Y114.035 E31.10878
G1 X115.52 Y114.433 E31.13573
G1 X114.41 Y115.541 E31.21397
G1 X113.929 Y115.974 E31.24626
G1 X112.705 Y116.964 E31.3248
G1 X112.083 Y117.406 E31.36287
G1 X110.302 Y118.515 E31.46754
G1 X109.541 Y118.919 E31.51053
G1 X107.631 Y119.767 E31.61479
G1 X106.82 Y120.061 E31.65782
G1 X104.806 Y120.637 E31.76233
G1 X103.957 Y120.817 E31.80563
G1 X101.89 Y121.105 E31.90975
G1 X101.025 Y121.164 E31.953
G1 X98.929 Y121.161 E32.05757
G1 X98.07 Y121.1 E32.10054
G1 X96.004 Y120.808 E32.20463
G1 X95.269 Y120.658 E32.24206
G1 X93.752 Y120.252 E32.32041
G1 X93.03 Y120.011 E32.35838
G1 X91.087 Y119.225 E32.46295
G1 X90.304 Y118.842 E32.50644
G1 X88.488 Y117.79 E32.61114
G1 X87.774 Y117.306 E32.65418
G1 X86.133 Y116.021 E32.75816
G1 X85.567 Y115.52 E32.79587
G1 X84.459 Y114.41 E32.87412
G1 X84.026 Y113.929 E32.9064
G1 X83.036 Y112.705 E32.98494
G1 X82.594 Y112.084 E33.02297
G1 X81.484 Y110.302 E33.12771
G1 X81.079 Y109.538 E33.17085
G1 X80.231 Y107.626 E33.27521
G1 X79.938 Y106.817 E33.31813
G1 X79.363 Y104.807 E33.42243
G1 X79.183 Y103.957 E33.46578
G1 X78.895 Y101.889 E33.56995
G1 X78.836 Y101.025 E33.61316
G1 X78.839 Y98.929 E33.71773
G1 X78.9 Y98.07 E33.76069
G1 X79.192 Y96.004 E33.86479
G1 X79.342 Y95.269 E33.90221
G1 X79.748 Y93.752 E33.98056
G1 X79.99 Y93.029 E34.0186
G1 X80.776 Y91.087 E34.12312
G1 X81.054 Y90.493 E34.15584
G1 X81.551 Y89.562 E34.20849
G1 X81.886 Y89.006 E34.24087
G1 X83.065 Y87.265 E34.34578
G1 X83.454 Y86.751 E34.37793
G1 X84.115 Y85.965 E34.42917
G1 X84.48 Y85.567 E34.45611
G0 F3600 X84.762 Y85.85
G1 F2100 X85.872 Y84.742 E34.53436
G1 X86.323 Y84.337 E34.5646
G1 X87.547 Y83.347 E34.64314
G1 X88.128 Y82.933 E34.67873
G1 X89.909 Y81.824 E34.78341
G1 X90.621 Y81.447 E34.8236
G1 X92.531 Y80.599 E34.92786
G1 X93.29 Y80.324 E34.96814
G1 X95.304 Y79.748 E35.07264
G1 X96.099 Y79.579 E35.11319
G1 X98.166 Y79.291 E35.21731
G1 X98.974 Y79.236 E35.25772
G1 X101.07 Y79.239 E35.36229
G1 X101.874 Y79.296 E35.4025
G1 X103.94 Y79.588 E35.5066
G1 X104.628 Y79.728 E35.54162
G1 X106.145 Y80.134 E35.61997
G1 X106.82 Y80.36 E35.65548
G1 X108.763 Y81.146 E35.76005
G1 X109.498 Y81.506 E35.80088
G1 X111.307 Y82.555 E35.90521
G1 X111.968 Y83.002 E35.94502
G1 X113.615 Y84.289 E36.0493
G1 X114.221 Y84.835 E36.09
G1 X115.674 Y86.343 E36.19447
G1 X116.191 Y86.96 E36.23463
G1 X117.419 Y88.652 E36.33894
