;FLAVOR:Marlin
;TIME:2505
;Filament used: 1.77801m
;Layer height: 0.15
;Generated with Cura_SteamEngine 3.3.1
M190 S30
M104 S207
M109 S207
M82 ;absolute extrusion mode
G21 ;metric values
G90 ;absolute positioning
M82 ;set extruder to absolute mode
M107 ;start with the fan off
G28 X0 Y0 ;move X/Y to min endstops
G28 Z0 ;move Z to min endstops
G1 Z15.0 F9000 ;move the platform down 15mm
G92 E0 ;zero the extruded length
G1 F200 E3 ;extrude 3mm of feed stock
G92 E0 ;zero the extruded length again
G1 F9000
;Put printing message on LCD screen
M117 Printing...
G92 E0
G1 F1500 E-2.5
;LAYER_COUNT:116
;LAYER:0
M107
G0 F3600 X84.807 Y84.4 Z0.3
;TYPE:SKIRT
G1 F1500 E0
G1 X85.512 Y83.744 E0.04804
G1 X87.179 Y82.4 E0.15487
G1 X87.936 Y81.87 E0.20098
G1 X89.598 Y80.868 E0.2978
G1 X90.351 Y80.476 E0.34015
G1 X92.028 Y79.732 E0.43168
G1 X92.733 Y79.465 E0.46929
G1 X94.113 Y79.028 E0.54151
G1 X94.894 Y78.831 E0.5817
G1 X96.952 Y78.439 E0.68622
G1 X97.893 Y78.327 E0.73349
G1 X99.983 Y78.225 E0.83789
G1 X100.938 Y78.246 E0.88554
G1 X103.055 Y78.441 E0.99161
G1 X103.965 Y78.587 E1.03759
G1 X105.844 Y79.022 E1.13381
G1 X106.704 Y79.282 E1.17864
G1 X108.626 Y80.005 E1.28109
G1 X109.515 Y80.415 E1.32993
G1 X111.476 Y81.496 E1.44164
G1 X112.296 Y82.028 E1.49041
G1 X113.952 Y83.281 E1.59401
G1 X114.657 Y83.896 E1.64069
G1 X116.108 Y85.347 E1.74306
G1 X116.732 Y86.064 E1.79048
G1 X118.014 Y87.766 E1.89679
G1 X118.547 Y88.593 E1.94587
G1 X119.607 Y90.53 E2.05604
G1 X120.01 Y91.408 E2.10423
G1 X120.72 Y93.303 E2.20519
G1 X120.958 Y94.076 E2.24554
G1 X121.336 Y95.624 E2.32504
G1 X121.483 Y96.437 E2.36626
G1 X121.721 Y98.447 E2.46724
G1 X121.767 Y99.375 E2.5136
G1 X121.728 Y101.441 E2.61669
G1 X121.645 Y102.382 E2.66382
G1 X121.315 Y104.456 E2.76859
G1 X121.11 Y105.35 E2.81435
G1 X120.546 Y107.221 E2.91184
G1 X120.214 Y108.096 E2.95853
G1 X119.311 Y110.062 E3.06647
G1 X118.959 Y110.73 E3.10414
G1 X118.376 Y111.699 E3.16056
G1 X117.973 Y112.294 E3.19641
G1 X116.724 Y113.946 E3.29974
G1 X116.108 Y114.653 E3.34652
G1 X114.651 Y116.11 E3.44932
G1 X113.933 Y116.734 E3.49678
G1 X112.233 Y118.014 E3.60294
G1 X111.408 Y118.547 E3.65195
G1 X109.473 Y119.606 E3.76199
G1 X108.754 Y119.946 E3.80167
G1 X107.548 Y120.433 E3.86656
G1 X106.767 Y120.695 E3.90766
G1 X104.527 Y121.297 E4.02338
G1 X103.562 Y121.483 E4.07241
G1 X101.553 Y121.721 E4.17334
G1 X100.625 Y121.767 E4.2197
G1 X98.558 Y121.728 E4.32284
G1 X97.616 Y121.644 E4.37002
G1 X95.544 Y121.314 E4.4747
G1 X94.652 Y121.11 E4.52035
G1 X92.78 Y120.546 E4.61789
G1 X91.902 Y120.214 E4.66472
G1 X89.935 Y119.31 E4.77272
G1 X89.075 Y118.836 E4.82171
G1 X87.263 Y117.661 E4.92945
G1 X86.49 Y117.078 E4.97776
G1 X84.903 Y115.692 E5.08288
G1 X84.251 Y115.039 E5.12892
G1 X82.949 Y113.546 E5.22775
G1 X82.373 Y112.784 E5.2754
G1 X81.165 Y110.926 E5.38597
G1 X80.682 Y110.047 E5.43601
G1 X79.765 Y108.042 E5.546
G1 X79.44 Y107.182 E5.59187
G1 X78.907 Y105.419 E5.68376
G1 X78.72 Y104.638 E5.72382
G1 X78.423 Y102.963 E5.80869
G1 X78.327 Y102.108 E5.85162
G1 X78.225 Y100.019 E5.95596
G1 X78.246 Y99.062 E6.00372
G1 X78.443 Y96.928 E6.11064
G1 X78.57 Y96.106 E6.15213
G1 X78.892 Y94.627 E6.22765
G1 X79.12 Y93.822 E6.26939
G1 X79.842 Y91.765 E6.37815
G1 X80.215 Y90.9 E6.42515
G1 X81.11 Y89.165 E6.52255
G1 X81.583 Y88.381 E6.56823
G1 X82.785 Y86.665 E6.67275
G1 X83.382 Y85.928 E6.72007
G1 X84.807 Y84.4 E6.82431
G0 F3600 X85.1 Y84.673
G1 F1500 X85.763 Y84.056 E6.86949
G1 X87.43 Y82.712 E6.97632
G1 X88.143 Y82.213 E7.01974
G1 X89.805 Y81.211 E7.11656
G1 X90.514 Y80.842 E7.15644
G1 X92.191 Y80.098 E7.24797
G1 X92.854 Y79.847 E7.28334
G1 X94.234 Y79.41 E7.35556
G1 X94.968 Y79.224 E7.39333
G1 X97.026 Y78.832 E7.49785
G1 X97.912 Y78.727 E7.54236
G1 X100.002 Y78.625 E7.64676
G1 X100.901 Y78.644 E7.69162
G1 X103.018 Y78.839 E7.79769
G1 X103.874 Y78.977 E7.84094
G1 X105.753 Y79.412 E7.93717
G1 X106.563 Y79.657 E7.97938
G1 X108.485 Y80.38 E8.08183
G1 X109.322 Y80.765 E8.1278
G1 X111.283 Y81.846 E8.23951
G1 X112.055 Y82.347 E8.28543
G1 X113.711 Y83.6 E8.38903
G1 X114.374 Y84.179 E8.43295
G1 X115.825 Y85.63 E8.53532
G1 X116.412 Y86.304 E8.57991
G1 X117.694 Y88.006 E8.68622
G1 X118.196 Y88.785 E8.73245
G1 X119.256 Y90.722 E8.84261
G1 X119.635 Y91.549 E8.888
G1 X120.345 Y93.444 E8.98896
G1 X120.569 Y94.171 E9.02691
G1 X120.947 Y95.719 E9.10641
G1 X121.086 Y96.484 E9.1452
G1 X121.324 Y98.494 E9.24618
G1 X121.367 Y99.368 E9.28984
G1 X121.328 Y101.434 E9.39293
G1 X121.249 Y102.319 E9.43726
G1 X120.919 Y104.393 E9.54203
G1 X120.727 Y105.234 E9.58507
G1 X120.163 Y107.105 E9.68256
G1 X119.851 Y107.929 E9.72652
G1 X118.948 Y109.895 E9.83446
G1 X118.616 Y110.523 E9.8699
G1 X118.033 Y111.492 E9.92632
G1 X117.654 Y112.053 E9.96009
G1 X116.405 Y113.705 E10.06342
G1 X115.825 Y114.37 E10.10744
G1 X114.368 Y115.827 E10.21024
G1 X113.693 Y116.415 E10.2549
G1 X111.993 Y117.695 E10.36107
G1 X111.216 Y118.196 E10.40719
G1 X109.281 Y119.255 E10.51724
G1 X108.604 Y119.575 E10.5546
G1 X107.398 Y120.062 E10.61949
G1 X106.663 Y120.309 E10.65817
G1 X104.423 Y120.911 E10.77389
G1 X103.515 Y121.086 E10.82002
G1 X101.506 Y121.324 E10.92096
G1 X100.632 Y121.367 E10.96461
G1 X98.565 Y121.328 E11.06775
G1 X97.679 Y121.249 E11.11213
G1 X95.607 Y120.919 E11.21681
G1 X94.768 Y120.727 E11.25975
G1 X92.896 Y120.163 E11.35729
G1 X92.069 Y119.85 E11.4014
G1 X90.102 Y118.946 E11.5094
G1 X89.293 Y118.501 E11.55547
G1 X87.481 Y117.326 E11.66321
G1 X86.753 Y116.776 E11.70873
G1 X85.166 Y115.39 E11.81385
G1 X84.553 Y114.776 E11.85714
G1 X83.251 Y113.283 E11.95597
G1 X82.708 Y112.566 E12.00084
G1 X81.5 Y110.708 E12.11141
G1 X81.046 Y109.881 E12.15847
G1 X80.129 Y107.876 E12.26847
G1 X79.823 Y107.066 E12.31167
G1 X79.29 Y105.303 E12.40356
G1 X79.114 Y104.568 E12.44126
G1 X78.817 Y102.893 E12.52613
G1 X78.727 Y102.088 E12.56654
G1 X78.625 Y99.999 E12.67089
G1 X78.644 Y99.099 E12.7158
G1 X78.841 Y96.965 E12.82272
G1 X78.96 Y96.192 E12.86174
G1 X79.282 Y94.713 E12.93725
G1 X79.497 Y93.954 E12.97661
G1 X80.219 Y91.897 E13.08537
G1 X80.57 Y91.083 E13.1296
G1 X81.465 Y89.348 E13.227
G1 X81.911 Y88.61 E13.27002
G1 X83.113 Y86.894 E13.37454
G1 X83.675 Y86.201 E13.41906
G1 X85.1 Y84.673 E13.52329
G0 F3600 X85.392 Y84.946
G1 F1500 X86.014 Y84.367 E13.56569
G1 X87.681 Y83.023 E13.67252
G1 X88.349 Y82.556 E13.71318
G1 X90.011 Y81.554 E13.81
G1 X90.676 Y81.208 E13.8474
G1 X92.353 Y80.464 E13.93893
G1 X92.975 Y80.228 E13.97212
G1 X94.355 Y79.791 E14.04434
G1 X95.043 Y79.617 E14.07975
G1 X97.101 Y79.225 E14.18427
G1 X97.932 Y79.126 E14.22602
G1 X100.022 Y79.024 E14.33041
G1 X100.864 Y79.042 E14.37243
G1 X102.981 Y79.237 E14.4785
G1 X103.784 Y79.367 E14.51908
G1 X105.663 Y79.802 E14.6153
G1 X106.423 Y80.031 E14.6549
G1 X108.345 Y80.754 E14.75735
G1 X109.129 Y81.115 E14.80041
G1 X111.09 Y82.196 E14.91213
G1 X111.813 Y82.666 E14.95515
G1 X113.469 Y83.919 E15.05875
G1 X114.092 Y84.461 E15.09995
G1 X115.543 Y85.912 E15.20233
G1 X116.093 Y86.545 E15.24416
G1 X117.375 Y88.247 E15.35047
G1 X117.845 Y88.977 E15.39378
G1 X118.905 Y90.914 E15.50394
G1 X119.261 Y91.689 E15.54649
G1 X119.971 Y93.584 E15.64745
G1 X120.181 Y94.266 E15.68306
G1 X120.559 Y95.814 E15.76255
G1 X120.688 Y96.531 E15.7989
G1 X120.926 Y98.541 E15.89988
G1 X120.967 Y99.36 E15.94079
G1 X120.928 Y101.426 E16.04388
G1 X120.854 Y102.256 E16.08546
G1 X120.524 Y104.33 E16.19023
G1 X120.344 Y105.119 E16.2306
G1 X119.78 Y106.99 E16.3281
G1 X119.487 Y107.762 E16.36929
G1 X118.584 Y109.728 E16.47723
G1 X118.273 Y110.317 E16.51046
G1 X117.69 Y111.286 E16.56688
G1 X117.335 Y111.812 E16.59854
G1 X116.086 Y113.464 E16.70186
G1 X115.543 Y114.088 E16.74313
G1 X114.086 Y115.545 E16.84593
G1 X113.452 Y116.095 E16.8878
G1 X111.752 Y117.375 E16.99397
G1 X111.024 Y117.845 E17.0372
G1 X109.089 Y118.904 E17.14725
G1 X108.455 Y119.205 E17.18226
G1 X107.249 Y119.692 E17.24715
G1 X106.559 Y119.922 E17.28344
G1 X104.319 Y120.524 E17.39916
G1 X103.468 Y120.688 E17.4424
G1 X101.459 Y120.926 E17.54333
G1 X100.64 Y120.967 E17.58424
G1 X98.573 Y120.928 E17.68738
G1 X97.742 Y120.854 E17.729
G1 X95.67 Y120.524 E17.83368
G1 X94.883 Y120.344 E17.87395
G1 X93.011 Y119.78 E17.9715
G1 X92.236 Y119.487 E18.01283
G1 X90.269 Y118.583 E18.12083
G1 X89.511 Y118.165 E18.16402
G1 X87.699 Y116.99 E18.27176
G1 X87.016 Y116.475 E18.31444
G1 X85.429 Y115.089 E18.41956
G1 X84.854 Y114.514 E18.46013
G1 X83.552 Y113.021 E18.55896
G1 X83.044 Y112.348 E18.60103
G1 X81.836 Y110.49 E18.71159
G1 X81.41 Y109.715 E18.75571
G1 X80.493 Y107.71 E18.86571
G1 X80.206 Y106.95 E18.90624
G1 X79.673 Y105.187 E18.99813
G1 X79.508 Y104.499 E19.03343
G1 X79.211 Y102.824 E19.1183
G1 X79.126 Y102.069 E19.1562
G1 X79.024 Y99.98 E19.26054
G1 X79.042 Y99.135 E19.30271
G1 X79.239 Y97.001 E19.40963
G1 X79.351 Y96.277 E19.44618
G1 X79.673 Y94.798 E19.5217
G1 X79.875 Y94.087 E19.55857
G1 X80.597 Y92.03 E19.66733
G1 X80.926 Y91.266 E19.70883
G1 X81.821 Y89.531 E19.80623
G1 X82.239 Y88.84 E19.84652
G1 X83.441 Y87.124 E19.95105
G1 X83.967 Y86.474 E19.99276
G1 X85.392 Y84.946 E20.097
G0 F3600 X85.685 Y85.219
G1 F1500 X86.265 Y84.678 E20.13657
G1 X87.932 Y83.334 E20.2434
G1 X88.556 Y82.898 E20.28138
G1 X90.218 Y81.896 E20.3782
G1 X90.838 Y81.573 E20.41308
G1 X92.515 Y80.829 E20.50461
G1 X93.095 Y80.609 E20.53556
G1 X94.475 Y80.172 E20.60778
G1 X95.118 Y80.01 E20.64086
G1 X97.176 Y79.618 E20.74538
G1 X97.951 Y79.526 E20.78432
G1 X100.041 Y79.424 E20.88871
G1 X100.828 Y79.441 E20.92798
G1 X102.945 Y79.636 E21.03405
G1 X103.694 Y79.756 E21.07189
G1 X105.573 Y80.191 E21.16811
G1 X106.282 Y80.406 E21.20508
G1 X108.204 Y81.129 E21.30753
G1 X108.935 Y81.466 E21.34768
G1 X110.896 Y82.547 E21.4594
G1 X111.572 Y82.985 E21.49959
G1 X113.228 Y84.238 E21.60319
G1 X113.809 Y84.744 E21.64163
G1 X115.26 Y86.195 E21.744
G1 X115.773 Y86.786 E21.78305
G1 X117.055 Y88.488 E21.88935
G1 X117.495 Y89.169 E21.9298
G1 X118.555 Y91.106 E22.03996
G1 X118.886 Y91.829 E22.07963
G1 X119.596 Y93.724 E22.18059
G1 X119.792 Y94.361 E22.21384
G1 X120.17 Y95.909 E22.29334
G1 X120.291 Y96.579 E22.32731
G1 X120.529 Y98.589 E22.42829
G1 X120.567 Y99.353 E22.46645
G1 X120.528 Y101.419 E22.56955
G1 X120.459 Y102.193 E22.60831
G1 X120.129 Y104.267 E22.71309
G1 X119.961 Y105.003 E22.75075
G1 X119.397 Y106.874 E22.84824
G1 X119.124 Y107.595 E22.88671
G1 X118.221 Y109.561 E22.99464
G1 X117.93 Y110.111 E23.02569
G1 X117.347 Y111.08 E23.08211
G1 X117.016 Y111.57 E23.11161
G1 X115.767 Y113.222 E23.21493
G1 X115.26 Y113.805 E23.25348
G1 X113.803 Y115.262 E23.35628
G1 X113.211 Y115.776 E23.39539
G1 X111.511 Y117.056 E23.50156
G1 X110.832 Y117.494 E23.54187
G1 X108.897 Y118.553 E23.65192
G1 X108.305 Y118.834 E23.68461
G1 X107.099 Y119.321 E23.7495
G1 X106.455 Y119.536 E23.78337
G1 X104.215 Y120.138 E23.89909
G1 X103.421 Y120.291 E23.93943
G1 X101.412 Y120.529 E24.04036
G1 X100.647 Y120.567 E24.07858
G1 X98.58 Y120.528 E24.18172
G1 X97.805 Y120.459 E24.22054
G1 X95.733 Y120.129 E24.32521
G1 X94.999 Y119.961 E24.36278
G1 X93.127 Y119.397 E24.46032
G1 X92.403 Y119.123 E24.49894
G1 X90.436 Y118.219 E24.60694
G1 X89.728 Y117.83 E24.64724
G1 X87.916 Y116.655 E24.75499
G1 X87.279 Y116.174 E24.79481
G1 X85.692 Y114.788 E24.89993
G1 X85.155 Y114.251 E24.93782
G1 X83.853 Y112.758 E25.03665
G1 X83.379 Y112.129 E25.07594
G1 X82.171 Y110.271 E25.18651
G1 X81.773 Y109.548 E25.22768
G1 X80.856 Y107.543 E25.33768
G1 X80.589 Y106.835 E25.37543
G1 X80.056 Y105.072 E25.46732
G1 X79.902 Y104.429 E25.5003
G1 X79.605 Y102.754 E25.58517
G1 X79.526 Y102.049 E25.62057
G1 X79.424 Y99.96 E25.72491
G1 X79.441 Y99.172 E25.76423
G1 X79.638 Y97.038 E25.87115
G1 X79.742 Y96.362 E25.90527
G1 X80.064 Y94.883 E25.98079
G1 X80.252 Y94.219 E26.01522
G1 X80.974 Y92.162 E26.12398
G1 X81.281 Y91.45 E26.16267
G1 X82.176 Y89.715 E26.26006
G1 X82.566 Y89.069 E26.29771
G1 X83.768 Y87.353 E26.40224
G1 X84.26 Y86.747 E26.44118
G1 X85.685 Y85.219 E26.54542
G0 F3600 X85.977 Y85.491
G1 F1500 X86.516 Y84.99 E26.58213
G1 X88.183 Y83.646 E26.68896
G1 X88.762 Y83.241 E26.72421
G1 X90.424 Y82.239 E26.82103
G1 X91 Y81.939 E26.85343
G1 X92.677 Y81.195 E26.94496
G1 X93.216 Y80.991 E26.97372
G1 X94.596 Y80.554 E27.04593
G1 X95.193 Y80.403 E27.07666
G1 X97.251 Y80.011 E27.18118
G1 X97.971 Y79.925 E27.21735
G1 X100.061 Y79.823 E27.32175
G1 X100.791 Y79.839 E27.35818
G1 X102.908 Y80.034 E27.46424
G1 X103.604 Y80.146 E27.49941
G1 X105.483 Y80.581 E27.59563
G1 X106.141 Y80.78 E27.62993
G1 X108.063 Y81.503 E27.73238
G1 X108.742 Y81.816 E27.76968
G1 X110.703 Y82.897 E27.8814
G1 X111.331 Y83.304 E27.91873
G1 X112.987 Y84.557 E28.02233
G1 X113.526 Y85.027 E28.05801
G1 X114.977 Y86.478 E28.16039
G1 X115.454 Y87.026 E28.19663
G1 X116.736 Y88.728 E28.30294
G1 X117.144 Y89.361 E28.34051
G1 X118.204 Y91.298 E28.45067
G1 X118.511 Y91.97 E28.48753
G1 X119.221 Y93.865 E28.58849
G1 X119.404 Y94.455 E28.61931
G1 X119.782 Y96.003 E28.69881
G1 X119.894 Y96.626 E28.73039
G1 X120.132 Y98.636 E28.83137
G1 X120.167 Y99.345 E28.86679
G1 X120.128 Y101.411 E28.96988
G1 X120.064 Y102.13 E29.00589
G1 X119.734 Y104.204 E29.11066
G1 X119.578 Y104.888 E29.14567
G1 X119.014 Y106.759 E29.24316
G1 X118.76 Y107.428 E29.27886
G1 X117.857 Y109.394 E29.3868
G1 X117.588 Y109.905 E29.41561
G1 X117.005 Y110.874 E29.47203
G1 X116.697 Y111.329 E29.49944
G1 X115.448 Y112.981 E29.60276
G1 X114.977 Y113.522 E29.63855
G1 X113.52 Y114.979 E29.74135
G1 X112.971 Y115.456 E29.77763
G1 X111.271 Y116.736 E29.8838
G1 X110.639 Y117.144 E29.92133
G1 X108.704 Y118.203 E30.03138
G1 X108.155 Y118.463 E30.06168
G1 X106.949 Y118.95 E30.12657
G1 X106.352 Y119.15 E30.15798
G1 X104.112 Y119.752 E30.2737
G1 X103.374 Y119.894 E30.3112
G1 X101.365 Y120.132 E30.41213
G1 X100.655 Y120.167 E30.44759
G1 X98.588 Y120.128 E30.55073
G1 X97.868 Y120.064 E30.58679
G1 X95.796 Y119.734 E30.69147
G1 X95.114 Y119.578 E30.72637
G1 X93.242 Y119.014 E30.82392
G1 X92.571 Y118.76 E30.85971
G1 X90.604 Y117.856 E30.96771
G1 X89.946 Y117.494 E31.00518
G1 X88.134 Y116.319 E31.11292
G1 X87.542 Y115.873 E31.1499
G1 X85.955 Y114.487 E31.25502
G1 X85.457 Y113.988 E31.29019
G1 X84.155 Y112.495 E31.38902
G1 X83.714 Y111.911 E31.42553
G1 X82.506 Y110.053 E31.5361
G1 X82.137 Y109.382 E31.5743
G1 X81.22 Y107.377 E31.6843
G1 X80.972 Y106.719 E31.71938
G1 X80.439 Y104.956 E31.81127
G1 X80.296 Y104.359 E31.8419
G1 X79.999 Y102.684 E31.92677
G1 X79.925 Y102.03 E31.9596
G1 X79.823 Y99.941 E32.06395
G1 X79.839 Y99.209 E32.10048
G1 X80.036 Y97.075 E32.20739
G1 X80.133 Y96.447 E32.2391
G1 X80.455 Y94.968 E32.31461
G1 X80.629 Y94.352 E32.34655
G1 X81.351 Y92.295 E32.45531
G1 X81.637 Y91.633 E32.49129
G1 X82.532 Y89.898 E32.58869
G1 X82.894 Y89.299 E32.6236
G1 X84.096 Y87.583 E32.72813
G1 X84.552 Y87.019 E32.76431
G1 X85.977 Y85.491 E32.86855
G0 F3600 X86.27 Y85.764
G1 F1500 X86.767 Y85.301 E32.90244
G1 X88.434 Y83.957 E33.00927
G1 X88.969 Y83.583 E33.04184
G1 X90.631 Y82.581 E33.13866
G1 X91.162 Y82.304 E33.16854
G1 X92.839 Y81.56 E33.26007
G1 X93.337 Y81.372 E33.28662
G1 X94.717 Y80.935 E33.35884
G1 X95.268 Y80.796 E33.38719
G1 X97.326 Y80.404 E33.49171
G1 X97.99 Y80.325 E33.52507
G1 X100.08 Y80.223 E33.62947
G1 X100.754 Y80.237 E33.6631
G1 X102.871 Y80.432 E33.76917
G1 X103.514 Y80.536 E33.80166
G1 X105.393 Y80.971 E33.89788
G1 X106 Y81.154 E33.92951
G1 X107.922 Y81.877 E34.03196
G1 X108.549 Y82.166 E34.06641
G1 X110.51 Y83.247 E34.17812
G1 X111.089 Y83.623 E34.21257
G1 X112.745 Y84.876 E34.31617
G1 X113.243 Y85.31 E34.34912
G1 X114.694 Y86.761 E34.4515
G1 X115.134 Y87.267 E34.48495
G1 X116.416 Y88.969 E34.59126
G1 X116.793 Y89.553 E34.62594
G1 X117.853 Y91.49 E34.7361
G1 X118.137 Y92.11 E34.77012
G1 X118.847 Y94.005 E34.87108
G1 X119.015 Y94.55 E34.89954
G1 X119.393 Y96.098 E34.97904
G1 X119.497 Y96.673 E35.00819
G1 X119.735 Y98.683 E35.10917
G1 X119.767 Y99.338 E35.14188
G1 X119.728 Y101.404 E35.24498
G1 X119.669 Y102.067 E35.27818
G1 X119.339 Y104.141 E35.38296
G1 X119.195 Y104.772 E35.41525
G1 X118.631 Y106.643 E35.51274
G1 X118.397 Y107.261 E35.54571
G1 X117.494 Y109.227 E35.65365
G1 X117.245 Y109.699 E35.68027
G1 X116.662 Y110.668 E35.73669
G1 X116.378 Y111.088 E35.76198
G1 X115.129 Y112.74 E35.86531
